04072.cube
# 04072.cube
# 04/07/2022 08:32:42 PM
# CalMAN 5 (22.2.15.847, 04/07/2022 08:32:42 PM, CubeGenerator, 3)
# LUT_ORDER BGR
LUT_3D_SIZE 33
DOMAIN_MIN 0.0 0.0 0.0
DOMAIN_MAX 1.0 1.0 1.0
0.0000000000 0.0000000000 0.0000000000
0.0308537423 0.0000000000 0.0000000000
0.0617074846 0.0000000000 0.0000000000
0.0925612268 0.0000000000 0.0000000000
0.1233997101 0.0000000000 0.0000000000
0.1542534524 0.0000000000 0.0000000000
0.1851071946 0.0000000000 0.0000000000
0.2159609369 0.0000000000 0.0000000000
0.2468146792 0.0000000000 0.0000000000
0.2776684215 0.0000000000 0.0000000000
0.3085221637 0.0000000000 0.0000000000
0.3393606470 0.0000000000 0.0000000000
0.3702143893 0.0000000000 0.0000000000
0.4010681315 0.0000000000 0.0000000000
0.4319218738 0.0000000000 0.0000000000
0.4627756161 0.0000000000 0.0000000000
0.4936293584 0.0000000000 0.0000000000
0.5244831006 0.0000000000 0.0000000000
0.5553215839 0.0000000000 0.0000000000
0.5861753262 0.0000000000 0.0000000000
0.6170290684 0.0000000000 0.0000000000
0.6478828107 0.0000000000 0.0000000000
0.6787365530 0.0000000000 0.0000000000
0.7095902953 0.0000000000 0.0000000000
0.7404440375 0.0000000000 0.0000000000
0.7712825208 0.0000000000 0.0000000000
0.8021362631 0.0000000000 0.0000000000
0.8329900053 0.0000000000 0.0000000000
0.8638437476 0.0000000000 0.0000000000
0.8946974899 0.0000000000 0.0000000000
0.9255512322 0.0000000000 0.0000000000
0.9564049744 0.0000000000 0.0000000000
0.9862821393 0.0000000000 0.0000000000
0.0000000000 0.0298313878 0.0000000000
0.0310368505 0.0300297551 0.0000915541
0.0620126650 0.0301060502 0.0001831083
0.0931258106 0.0303807126 0.0002441444
0.1239795529 0.0303654536 0.0003356985
0.1550926986 0.0305943389 0.0003967346
0.1860227359 0.0305638209 0.0004882887
0.2169222553 0.0306248569 0.0005645838
0.2480354009 0.0308842603 0.0006103609
0.2790569924 0.0310215915 0.0006866560
0.3099870298 0.0310673686 0.0007629511
0.3409781033 0.0311741817 0.0008392462
0.3717402914 0.0311131456 0.0009308003
0.4024109255 0.0312046998 0.0009918364
0.4327763790 0.0312809949 0.0010376135
0.4630197604 0.0313115129 0.0010833906
0.4931563287 0.0312199588 0.0010986496
0.5232776379 0.0311741817 0.0010833906
0.5535362783 0.0311894408 0.0010376135
0.5840543221 0.0312046998 0.0009765774
0.6148012512 0.0310063325 0.0009308003
0.6456702525 0.0310978866 0.0008392462
0.6768749523 0.0308537423 0.0007782101
0.7079118029 0.0307621881 0.0007171740
0.7389181353 0.0307469291 0.0006256199
0.7699855039 0.0306095979 0.0005645838
0.8011749447 0.0305027848 0.0005035477
0.8321965362 0.0304112306 0.0004119936
0.8632791638 0.0302281224 0.0003662165
0.8942092012 0.0302128634 0.0002746624
0.9252918288 0.0300907912 0.0001983673
0.9562829023 0.0299839780 0.0001068132
0.9862821393 0.0298313878 0.0000000000
0.0000000000 0.0596475166 0.0000000000
0.0311741817 0.0599221790 0.0001831083
0.0623025864 0.0602121004 0.0003509575
0.0935072862 0.0605477989 0.0004882887
0.1246204318 0.0607766842 0.0006561379
0.1558098726 0.0610818647 0.0007934691
0.1868772412 0.0612344549 0.0009460594
0.2178683146 0.0613717861 0.0010986496
0.2489814603 0.0616006714 0.0012512398
0.2802166781 0.0618448157 0.0013733120
0.3111314565 0.0619211109 0.0015564202
0.3419241627 0.0620126650 0.0016937514
0.3723964294 0.0620584421 0.0018310826
0.4026855879 0.0621499962 0.0019073777
0.4327153429 0.0621042191 0.0019989319
0.4627603571 0.0622262913 0.0020294499
0.4927901122 0.0622415503 0.0020447089
0.5227740902 0.0621194781 0.0020294499
0.5527885863 0.0620889601 0.0019989319
0.5830319677 0.0620889601 0.0019073777
0.6134584573 0.0619974060 0.0018158236
0.6440375372 0.0619363699 0.0016937514
0.6749828336 0.0618448157 0.0015411612
0.7062027924 0.0616159304 0.0014038300
0.7375295644 0.0614633402 0.0012512398
0.7688105592 0.0611734188 0.0011139086
0.8000457771 0.0610666056 0.0009613184
0.8312504768 0.0608072023 0.0008239872
0.8625925078 0.0605783169 0.0006713970
0.8937361715 0.0603646906 0.0005188067
0.9250019074 0.0600137331 0.0003814755
0.9561913481 0.0598458839 0.0001983673
0.9862821393 0.0596475166 0.0000000000
0.0000000000 0.0894789044 0.0000000000
0.0313572900 0.0899824521 0.0002441444
0.0625467308 0.0903639277 0.0005035477
0.0938429847 0.0908064393 0.0007324331
0.1252307927 0.0912031739 0.0009460594
0.1564507515 0.0914930953 0.0011749447
0.1875638972 0.0917524987 0.0014038300
0.2188601511 0.0920424201 0.0016174563
0.2500801099 0.0923476005 0.0018616007
0.2809948882 0.0924086366 0.0021057450
0.3117418173 0.0926070039 0.0023041123
0.3421988251 0.0926680400 0.0025024796
0.3725337606 0.0927138170 0.0026398108
0.4025635157 0.0927443351 0.0027771420
0.4326237888 0.0927595941 0.0028534371
0.4625009537 0.0927901122 0.0028992142
0.4923933776 0.0928358892 0.0028992142
0.5222400244 0.0927138170 0.0028992142
0.5522697795 0.0928206302 0.0028381781
0.5823453117 0.0927595941 0.0027466239
0.6125429160 0.0926985580 0.0026398108
0.6430762188 0.0926222629 0.0024872206
0.6737773709 0.0924391547 0.0023193713
0.7048142214 0.0922560464 0.0021210040
0.7360799573 0.0921187152 0.0018768597
0.7675898375 0.0918135348 0.0016479744
0.7989471275 0.0916304265 0.0014190890
0.8304264897 0.0912031739 0.0012054627
0.8618600748 0.0908216983 0.0009918364
0.8933394369 0.0904859998 0.0007629511
0.9247119860 0.0901655604 0.0005188067
0.9559777218 0.0898298619 0.0002746624
0.9862821393 0.0894789044 0.0000000000
0.0000000000 0.1193102922 0.0000000000
0.0314641032 0.1199359121 0.0003356985
0.0629282063 0.1205462730 0.0006561379
0.0942702373 0.1210040436 0.0009460594
0.1255970092 0.1214770733 0.0012512398
0.1569085222 0.1218432898 0.0015564202
0.1882963302 0.1222095064 0.0018616007
0.2195925841 0.1225909819 0.0021820401
0.2506904707 0.1228046082 0.0024872206
0.2814526589 0.1229877165 0.0027618830
0.3119554437 0.1230487526 0.0030060273
0.3422903792 0.1231097887 0.0032196536
0.3724269474 0.1231403067 0.0033875029
0.4024719615 0.1231555657 0.0035095750
0.4323796445 0.1232013428 0.0036011292
0.4622568093 0.1232318608 0.0036316472
0.4920119020 0.1231097887 0.0036774243
0.5218738079 0.1230792706 0.0036621653
0.5518120089 0.1230640116 0.0036011292
0.5818112459 0.1230792706 0.0034943160
0.6119935912 0.1230487526 0.0033875029
0.6423437858 0.1229419394 0.0032196536
0.6729839017 0.1229114214 0.0030212863
0.7037460899 0.1228046082 0.0027771420
0.7349202716 0.1225909819 0.0025024796
0.7661707485 0.1224078737 0.0021820401
0.7978484779 0.1220111391 0.0018768597
0.8296025025 0.1215533684 0.0015869383
0.8611123827 0.1212176699 0.0012817578
0.8927138170 0.1207598993 0.0009765774
0.9242999924 0.1202716106 0.0006561379
0.9558098726 0.1197680629 0.0003356985
0.9862821393 0.1193102922 0.0000000000
0.0000000000 0.1491416800 0.0000000000
0.0315403983 0.1499504082 0.0004119936
0.0630655375 0.1504997330 0.0008087282
0.0946669718 0.1511558709 0.0011749447
0.1260242618 0.1517509728 0.0015564202
0.1575494011 0.1523308156 0.0019226368
0.1888303960 0.1526359960 0.0023498894
0.2200503548 0.1528801404 0.0027161059
0.2509803922 0.1531700618 0.0030670634
0.2815899901 0.1533226520 0.0033569848
0.3120012207 0.1533226520 0.0036316472
0.3421988251 0.1533684291 0.0038452735
0.3723201343 0.1533531701 0.0040283818
0.4022735943 0.1532768750 0.0041809720
0.4320744640 0.1533684291 0.0042572671
0.4619058518 0.1532310979 0.0043335622
0.4916609445 0.1532463569 0.0043488212
0.5215228504 0.1532158389 0.0043335622
0.5513847562 0.1533073930 0.0042572671
0.5813839933 0.1532310979 0.0041809720
0.6115205615 0.1531700618 0.0040436408
0.6417639429 0.1532616159 0.0038452735
0.6722972457 0.1531242847 0.0036316472
0.7030136568 0.1530479896 0.0033875029
0.7339894713 0.1528953994 0.0030823224
0.7652094301 0.1527580682 0.0027313649
0.7968719005 0.1523765927 0.0023651484
0.8286869612 0.1519798581 0.0019684138
0.8605172808 0.1514152743 0.0016021973
0.8923476005 0.1508506905 0.0012207218
0.9239948119 0.1502708476 0.0008239872
0.9556572824 0.1497520409 0.0004272526
0.9862821393 0.1491416800 0.0000000000
0.0000000000 0.1789578088 0.0000000000
0.0317235065 0.1798733501 0.0004730297
0.0632486458 0.1805600061 0.0009460594
0.0948500801 0.1813382162 0.0014038300
0.1264209964 0.1819180591 0.0018616007
0.1578850996 0.1824063478 0.0023498894
0.1892576486 0.1828183413 0.0027924010
0.2202029450 0.1830319677 0.0032196536
0.2510414282 0.1831845579 0.0035706111
0.2815136950 0.1832150759 0.0039215686
0.3119249256 0.1832761120 0.0041962310
0.3420157168 0.1832303349 0.0044251164
0.3720759899 0.1831692988 0.0046234836
0.4020141909 0.1831845579 0.0047608148
0.4317845426 0.1831540398 0.0048676280
0.4616311894 0.1831387808 0.0049286641
0.4913862821 0.1830930037 0.0049591821
0.5212634470 0.1830777447 0.0049286641
0.5510490578 0.1830777447 0.0048676280
0.5810025177 0.1831235218 0.0047608148
0.6111085679 0.1830472267 0.0046234836
0.6413519493 0.1830472267 0.0044403754
0.6718394751 0.1830930037 0.0041962310
0.7024948501 0.1830777447 0.0039215686
0.7334096284 0.1830014496 0.0036011292
0.7645685512 0.1828946365 0.0032196536
0.7960631724 0.1824673838 0.0028229191
0.8277561608 0.1822384985 0.0023651484
0.8598001068 0.1816739147 0.0018921187
0.8917830167 0.1810788128 0.0014343481
0.9236743725 0.1803921569 0.0009613184
0.9555199512 0.1796292058 0.0004882887
0.9862821393 0.1789578088 0.0000000000
0.0000000000 0.2087891966 0.0000000000
0.0318303197 0.2097962921 0.0005493248
0.0634470130 0.2105897612 0.0010986496
0.0952162966 0.2114595254 0.0016174563
0.1268329900 0.2121156634 0.0021667811
0.1581750210 0.2125123980 0.0027161059
0.1893034257 0.2127565423 0.0032196536
0.2203402762 0.2130159457 0.0036469062
0.2508735790 0.2129396506 0.0040588998
0.2814221408 0.2129701686 0.0043945983
0.3116960403 0.2129091325 0.0046997787
0.3418478676 0.2129243915 0.0049286641
0.3718013275 0.2128175784 0.0051422904
0.4016479744 0.2128023194 0.0052796216
0.4315251392 0.2126802472 0.0053864347
0.4612954910 0.2126497292 0.0054627298
0.4910811017 0.2126802472 0.0054779889
0.5209430076 0.2126497292 0.0054474708
0.5508049134 0.2126344701 0.0053864347
0.5808346685 0.2126344701 0.0052948806
0.6108949416 0.2126955062 0.0051422904
0.6411078050 0.2126802472 0.0049591821
0.6715190356 0.2128023194 0.0047150378
0.7021133745 0.2128633555 0.0044098573
0.7330128939 0.2127870603 0.0040741588
0.7640802625 0.2126344701 0.0036926833
0.7953459983 0.2125734340 0.0032196536
0.8271763180 0.2122224765 0.0027466239
0.8591439689 0.2117799649 0.0022125582
0.8911726558 0.2112001221 0.0016479744
0.9233386740 0.2104524300 0.0011139086
0.9553215839 0.2096131838 0.0005493248
0.9862821393 0.2087891966 0.0000000000
0.0000000000 0.2386205844 0.0000000000
0.0318150607 0.2396581979 0.0006256199
0.0637521935 0.2407873655 0.0012207218
0.0954604410 0.2415197986 0.0018463416
0.1270313573 0.2421606775 0.0024719615
0.1582970932 0.2424048219 0.0030670634
0.1892881666 0.2426031891 0.0035858701
0.2202334630 0.2427100023 0.0040436408
0.2507362478 0.2426337072 0.0044556344
0.2811017014 0.2424811170 0.0048218509
0.3114518959 0.2424658579 0.0051117723
0.3415274281 0.2423437858 0.0053711757
0.3715114061 0.2422217136 0.0055695430
0.4013427939 0.2421759365 0.0057373922
0.4311894408 0.2421301595 0.0058442054
0.4610208286 0.2420538643 0.0059052415
0.4908369574 0.2419623102 0.0059510185
0.5206530861 0.2420233463 0.0059205005
0.5505760281 0.2419928283 0.0058442054
0.5805447471 0.2420080873 0.0057526513
0.6106202792 0.2421454185 0.0055848020
0.6409094377 0.2421606775 0.0054016938
0.6712291142 0.2422980087 0.0051422904
0.7017929351 0.2423895628 0.0048371099
0.7326924544 0.2423285267 0.0045014115
0.7637598230 0.2423132677 0.0040894179
0.7950408179 0.2423132677 0.0036163882
0.8266269932 0.2421911955 0.0030823224
0.8585030900 0.2418554971 0.0025024796
0.8906538491 0.2413519493 0.0018768597
0.9229724575 0.2404974441 0.0012664988
0.9551537346 0.2396429389 0.0006256199
0.9862821393 0.2386205844 0.0000000000
0.0000000000 0.2684367132 0.0000000000
0.0319676509 0.2697337301 0.0006866560
0.0637674525 0.2706797894 0.0013885710
0.0954757000 0.2714579995 0.0020904860
0.1270008392 0.2718394751 0.0027466239
0.1582665751 0.2721904326 0.0033417258
0.1892118715 0.2722056916 0.0038910506
0.2199130236 0.2721446555 0.0043793393
0.2504615854 0.2720073243 0.0048065919
0.2808575570 0.2718699931 0.0051880674
0.3110856794 0.2717479210 0.0054779889
0.3411001755 0.2715342947 0.0057679103
0.3710994125 0.2714579995 0.0059662776
0.4010223545 0.2713359274 0.0061188678
0.4308842603 0.2711985962 0.0062561990
0.4607003891 0.2711070420 0.0063172351
0.4906080720 0.2711833371 0.0063324941
0.5204242008 0.2711833371 0.0063172351
0.5503624018 0.2711833371 0.0062409400
0.5803921569 0.2711833371 0.0061493858
0.6104371710 0.2713054093 0.0059815366
0.6406805524 0.2714427405 0.0057831693
0.6710612650 0.2715648127 0.0055085069
0.7016556039 0.2716411078 0.0052033265
0.7324635691 0.2718089570 0.0048523690
0.7634241245 0.2719310292 0.0044251164
0.7947203784 0.2719462882 0.0039368276
0.8262302586 0.2718547341 0.0033875029
0.8581673915 0.2716258488 0.0027924010
0.8901350423 0.2712596323 0.0021057450
0.9225452049 0.2706034943 0.0013885710
0.9549401083 0.2695506218 0.0006866560
0.9862821393 0.2684367132 0.0000000000
0.0000000000 0.2982681010 0.0000000000
0.0320744640 0.2996414130 0.0007476921
0.0639505608 0.3006332494 0.0015411612
0.0955214771 0.3011520562 0.0023041123
0.1269092851 0.3015182727 0.0029907683
0.1581139849 0.3016098268 0.0036011292
0.1889524681 0.3015335317 0.0041809720
0.2196536202 0.3013656825 0.0046692607
0.2501411460 0.3011825742 0.0051117723
0.2805065995 0.3009842069 0.0054779889
0.3107042039 0.3007858396 0.0057984283
0.3408255131 0.3006179904 0.0060578317
0.3707789731 0.3004196231 0.0062867170
0.4007019150 0.3002517739 0.0064545663
0.4305943389 0.3001144427 0.0065766384
0.4604409857 0.3000991836 0.0066529335
0.4903181506 0.3001297017 0.0066681926
0.5202716106 0.3000076295 0.0066681926
0.5502403296 0.3000534066 0.0066071565
0.5802395666 0.3002517739 0.0064698253
0.6103456168 0.3003433280 0.0063019760
0.6405889982 0.3004654002 0.0060883497
0.6710154879 0.3006179904 0.0058442054
0.7015335317 0.3008316167 0.0055237659
0.7323262379 0.3009994659 0.0051575494
0.7632867933 0.3011978332 0.0047150378
0.7945677882 0.3013046464 0.0042114900
0.8260318914 0.3013199054 0.0036621653
0.8578011749 0.3013504234 0.0030060273
0.8899214160 0.3009536889 0.0023346304
0.9222400244 0.3004501411 0.0015564202
0.9548027771 0.2993820096 0.0007782101
0.9862821393 0.2982681010 0.0000000000
0.0000000000 0.3280994888 0.0000000000
0.0319829099 0.3294880598 0.0008392462
0.0639505608 0.3304036011 0.0016784924
0.0954757000 0.3307545586 0.0024719615
0.1266956588 0.3308918898 0.0031891356
0.1577325093 0.3308155947 0.0038452735
0.1886472877 0.3307240406 0.0044098573
0.2193484398 0.3305256733 0.0048981460
0.2497291524 0.3302204929 0.0053559167
0.2800793469 0.3299305715 0.0057373922
0.3103532464 0.3297016861 0.0060425727
0.3403982605 0.3294728008 0.0063477531
0.3704280156 0.3292896925 0.0065613794
0.4003814755 0.3290913252 0.0067292287
0.4303501946 0.3289845121 0.0068360418
0.4601968414 0.3289387350 0.0069123369
0.4900892653 0.3288624399 0.0069428550
0.5200885023 0.3288471809 0.0069428550
0.5500572213 0.3288319219 0.0068818189
0.5801174945 0.3289997711 0.0067444877
0.6102998398 0.3291828794 0.0065918975
0.6405737392 0.3293354696 0.0063782712
0.6710002289 0.3296101320 0.0061036088
0.7015640497 0.3298542763 0.0057831693
0.7323262379 0.3300373846 0.0054016938
0.7632867933 0.3302815290 0.0049744411
0.7945677882 0.3304646372 0.0044708934
0.8260166323 0.3306172274 0.0038910506
0.8576485847 0.3307240406 0.0032349126
0.8897840848 0.3305256733 0.0025177386
0.9220416571 0.3301747158 0.0017090105
0.9545891508 0.3294880598 0.0008239872
0.9862821393 0.3280994888 0.0000000000
0.0000000000 0.3579156176 0.0000000000
0.0320744640 0.3593957427 0.0009155413
0.0637521935 0.3599145495 0.0018158236
0.0953231098 0.3601892119 0.0026245518
0.1264820325 0.3601892119 0.0033417258
0.1574273289 0.3600366217 0.0040131228
0.1882505531 0.3598382544 0.0045624475
0.2187991150 0.3593957427 0.0050965133
0.2493476768 0.3591515984 0.0055390249
0.2796520943 0.3588158999 0.0059205005
0.3098191806 0.3584344244 0.0062714580
0.3399862669 0.3582055390 0.0065613794
0.3700312810 0.3579461357 0.0067750057
0.4000305180 0.3577325093 0.0069428550
0.4300297551 0.3576256962 0.0070649271
0.4599679561 0.3575341421 0.0071564813
0.4899214160 0.3574883650 0.0071869993
0.5199206531 0.3574731060 0.0071564813
0.5499198901 0.3575188830 0.0071107042
0.5801174945 0.3576867323 0.0069733730
0.6102693217 0.3578545815 0.0068360418
0.6406500343 0.3580071717 0.0066071565
0.6710154879 0.3583276112 0.0063477531
0.7016250858 0.3586022736 0.0060120546
0.7324483101 0.3588616770 0.0056305791
0.7633936065 0.3592736706 0.0051728084
0.7945983062 0.3595025559 0.0046692607
0.8260166323 0.3598229953 0.0040741588
0.8576943618 0.3600671397 0.0034027619
0.8895551995 0.3600976577 0.0026398108
0.9218585489 0.3597924773 0.0018310826
0.9545738918 0.3591210803 0.0009308003
0.9862821393 0.3579156176 0.0000000000
0.0000000000 0.3877470054 0.0000000000
0.0319829099 0.3889677272 0.0009918364
0.0637064164 0.3894560159 0.0019073777
0.0949721523 0.3894712749 0.0027313649
0.1260547799 0.3893339437 0.0034790570
0.1570763714 0.3890897993 0.0041199359
0.1877470054 0.3887083238 0.0047150378
0.2183871214 0.3882810712 0.0052491035
0.2488593881 0.3878690776 0.0056916152
0.2791943236 0.3875333791 0.0060730907
0.3094682231 0.3871824216 0.0064087892
0.3395590143 0.3867399100 0.0067139696
0.3696345464 0.3865568017 0.0069275959
0.3996643015 0.3863431754 0.0071107042
0.4297245747 0.3861295491 0.0072327764
0.4597085527 0.3860379950 0.0073395895
0.4896772717 0.3859769589 0.0073701076
0.5197985809 0.3860074769 0.0073395895
0.5498893721 0.3860379950 0.0072938125
0.5800259403 0.3861905852 0.0071717403
0.6103456168 0.3864194705 0.0070038911
0.6406958114 0.3866483558 0.0067750057
0.6711833371 0.3869382773 0.0065156023
0.7017471580 0.3873197528 0.0061646448
0.7325856413 0.3877164874 0.0057831693
0.7635767147 0.3881132219 0.0053253986
0.7946898604 0.3884946975 0.0048065919
0.8261081865 0.3888609140 0.0042114900
0.8577096208 0.3891508354 0.0035400931
0.8896772717 0.3892881666 0.0027771420
0.9218585489 0.3893339437 0.0019378958
0.9543297475 0.3889066911 0.0009765774
0.9862821393 0.3877470054 0.0000000000
0.0000000000 0.4175783932 0.0000000000
0.0319371328 0.4186617838 0.0010223545
0.0634164950 0.4187533379 0.0019684138
0.0946517128 0.4186312657 0.0027924010
0.1257190814 0.4183718624 0.0035400931
0.1565423056 0.4179751278 0.0042114900
0.1871976806 0.4174410620 0.0048218509
0.2178683146 0.4170138094 0.0053253986
0.2483558404 0.4165407797 0.0057984283
0.2786602579 0.4160524910 0.0061951629
0.3089036393 0.4155947204 0.0065461204
0.3391165026 0.4153047990 0.0068360418
0.3692378119 0.4149843595 0.0070649271
0.3993743801 0.4147554742 0.0072327764
0.4293583581 0.4145571069 0.0073853666
0.4594491493 0.4144197757 0.0074464027
0.4895399405 0.4143587396 0.0074921798
0.5197222858 0.4144655528 0.0074616617
0.5498130770 0.4144960708 0.0074006256
0.5800564584 0.4146944381 0.0072938125
0.6103456168 0.4148928054 0.0071259632
0.6408026246 0.4151674678 0.0068970779
0.6712901503 0.4155489433 0.0066376745
0.7019913024 0.4158541238 0.0063019760
0.7327534905 0.4163576715 0.0058899825
0.7638513771 0.4167696651 0.0054474708
0.7949950408 0.4173037308 0.0049286641
0.8263065537 0.4177157244 0.0043183032
0.8580148013 0.4181277180 0.0036316472
0.8897993439 0.4184634165 0.0028686961
0.9219043259 0.4187075608 0.0019989319
0.9543450065 0.4185091936 0.0010376135
0.9862821393 0.4175783932 0.0000000000
0.0000000000 0.4474097810 0.0000000000
0.0318150607 0.4480506600 0.0010528725
0.0631418326 0.4480201419 0.0019989319
0.0942397192 0.4476997024 0.0028229191
0.1251697566 0.4472877089 0.0035858701
0.1559929808 0.4466926070 0.0042572671
0.1866788739 0.4461432822 0.0048828870
0.2172732128 0.4456397345 0.0054016938
0.2477607385 0.4450598917 0.0058594644
0.2781109331 0.4445563439 0.0062714580
0.3084763867 0.4441443503 0.0066071565
0.3386434730 0.4437170977 0.0068970779
0.3688715953 0.4434271763 0.0071259632
0.3990234226 0.4431525139 0.0073243305
0.4291142138 0.4428931106 0.0074616617
0.4592355230 0.4428320745 0.0075532158
0.4894331273 0.4427405203 0.0075837339
0.5195849546 0.4428015564 0.0075379568
0.5498130770 0.4429236286 0.0074769207
0.5800869764 0.4430151827 0.0073701076
0.6104676890 0.4433203632 0.0072175174
0.6409246967 0.4436408026 0.0069733730
0.6715495537 0.4440375372 0.0066987106
0.7021896696 0.4444342718 0.0063630121
0.7330739300 0.4449530785 0.0059662776
0.7640802625 0.4454261082 0.0055085069
0.7952239261 0.4459754330 0.0049744411
0.8266117342 0.4465705348 0.0043640803
0.8582284276 0.4471351186 0.0036774243
0.8900740063 0.4475623713 0.0029144732
0.9221789883 0.4478828107 0.0020447089
0.9545281147 0.4479743648 0.0010681315
0.9862821393 0.4474097810 0.0000000000
0.0000000000 0.4772259098 0.0000000000
0.0315709163 0.4774242771 0.0010528725
0.0626840620 0.4770733196 0.0020141909
0.0937361715 0.4766155489 0.0028381781
0.1246662089 0.4760814832 0.0035858701
0.1553368429 0.4753795682 0.0042877852
0.1860990311 0.4747539483 0.0048981460
0.2166628519 0.4742046235 0.0054016938
0.2471961547 0.4735790036 0.0058899825
0.2776073854 0.4730754559 0.0062714580
0.3078812848 0.4725108721 0.0066376745
0.3382162203 0.4721293965 0.0069275959
0.3685053788 0.4718089570 0.0071564813
0.3987029831 0.4714579995 0.0073395895
0.4289005875 0.4712748913 0.0074769207
0.4590676738 0.4711680781 0.0075684749
0.4893110552 0.4710460060 0.0076142519
0.5195544366 0.4711375601 0.0075989929
0.5498741131 0.4712596323 0.0075226978
0.5802395666 0.4714579995 0.0074158846
0.6105897612 0.4716563668 0.0072480354
0.6411230640 0.4720225834 0.0070191501
0.6717784390 0.4724040589 0.0067292287
0.7024948501 0.4729076066 0.0063935302
0.7333943694 0.4734416724 0.0059967956
0.7644769970 0.4740367742 0.0055237659
0.7956054017 0.4746929122 0.0049897002
0.8270542458 0.4753490501 0.0043793393
0.8585793851 0.4759441520 0.0037079423
0.8903791867 0.4765545129 0.0029297322
0.9223620966 0.4770428016 0.0020447089
0.9547264820 0.4773022049 0.0010833906
0.9862821393 0.4772259098 0.0000000000
0.0000000000 0.5070572976 0.0000000000
0.0312199588 0.5066758221 0.0010376135
0.0622262913 0.5061112383 0.0019836728
0.0932326238 0.5055313954 0.0028076600
0.1240253300 0.5047989624 0.0035858701
0.1547722591 0.5041123064 0.0042420081
0.1854428931 0.5034103914 0.0048523690
0.2160677501 0.5027389944 0.0053711757
0.2466163119 0.5020675975 0.0058442054
0.2770428016 0.5014572366 0.0062409400
0.3074082551 0.5009689479 0.0066224155
0.3378042267 0.5005264363 0.0068970779
0.3680781262 0.5001297017 0.0071412222
0.3983367666 0.4997940032 0.0073243305
0.4286564431 0.4996261540 0.0074616617
0.4589150835 0.4994888228 0.0075532158
0.4892042420 0.4994735637 0.0075837339
0.5195086595 0.4994888228 0.0075837339
0.5498741131 0.4995498589 0.0074921798
0.5803311208 0.4998092622 0.0074006256
0.6108033875 0.5000534066 0.0072175174
0.6413977264 0.5003891051 0.0069886320
0.6721446555 0.5008316167 0.0067139696
0.7029221027 0.5013656825 0.0063782712
0.7338521401 0.5019760433 0.0059815366
0.7649042496 0.5025711452 0.0055085069
0.7960631724 0.5032883192 0.0049897002
0.8274204623 0.5040054932 0.0043640803
0.8590371557 0.5047379263 0.0036926833
0.8908369574 0.5054398413 0.0029144732
0.9226825360 0.5061417563 0.0020294499
0.9549401083 0.5066300450 0.0010528725
0.9862821393 0.5070572976 0.0000000000
0.0000000000 0.5368886854 0.0000000000
0.0308079652 0.5358968490 0.0010070954
0.0617837797 0.5351949340 0.0019226368
0.0926985580 0.5343862058 0.0027466239
0.1234302281 0.5335317006 0.0034943160
0.1541466392 0.5327534905 0.0041809720
0.1847867552 0.5319905394 0.0047913329
0.2153505760 0.5312275883 0.0053253986
0.2460364691 0.5306019684 0.0057679103
0.2764171817 0.5299916075 0.0061951629
0.3068589303 0.5293812467 0.0065461204
0.3373769741 0.5289082170 0.0068207828
0.3677271687 0.5285114824 0.0070801862
0.3980468452 0.5282520790 0.0072480354
0.4284122988 0.5279926757 0.0074006256
0.4587624933 0.5278095674 0.0074921798
