04072.cube
# 04072.cube
# 04/07/2022 08:32:42 PM
# CalMAN 5 (22.2.15.847, 04/07/2022 08:32:42 PM, CubeGenerator, 3)
# LUT_ORDER BGR
LUT_3D_SIZE 5
DOMAIN_MIN 0.0 0.0 0.0
DOMAIN_MAX 1.0 1.0 1.0
0.0000000000 0.0000000000 0.0000000000
0.2468146792 0.0000000000 0.0000000000
0.4936293584 0.0000000000 0.0000000000
0.7404440375 0.0000000000 0.0000000000
0.9862821393 0.0000000000 0.0000000000
0.0000000000 0.2386205844 0.0000000000
0.2507362478 0.2426337072 0.0044556344
0.4908369574 0.2419623102 0.0059510185
0.7326924544 0.2423285267 0.0045014115
0.9862821393 0.2386205844 0.0000000000
0.0000000000 0.4772259098 0.0000000000
0.2471961547 0.4735790036 0.0058899825
0.4893110552 0.4710460060 0.0076142519
0.7333943694 0.4734416724 0.0059967956
0.9862821393 0.4772259098 0.0000000000
0.0000000000 0.7158464942 0.0000000000
0.2431525139 0.7041275654 0.0043793393
0.4894789044 0.7009842069 0.0060425727
0.7375753414 0.7041428244 0.0046082246
0.9862821393 0.7158464942 0.0000000000
0.0000000000 0.9535362783 0.0000000000
0.2468146792 0.9535362783 0.0000000000
0.4936293584 0.9535362783 0.0000000000
0.7404440375 0.9535362783 0.0000000000
0.9862821393 0.9535362783 0.0000000000
0.0000000000 0.0000000000 0.1895475700
0.2511940185 0.0118104829 0.1934081025
0.4888532845 0.0154268711 0.1939726864
0.7293354696 0.0111696040 0.1927672236
0.9862821393 0.0000000000 0.1895475700
0.0103150988 0.2446784161 0.1917143511
0.2239261463 0.2213015946 0.1835812924
0.4681773098 0.2161440452 0.1835812924
0.7273823148 0.2113832303 0.1871824216
1.0000000000 0.1124589914 0.1486839094
0.0129396506 0.4845807584 0.1921110857
0.1948729686 0.4390173190 0.1807888914
0.4537117571 0.4374608988 0.1830472267
0.7179522393 0.4352635996 0.1873044938
1.0000000000 0.3671625849 0.1552452888
0.0090486000 0.7212329290 0.1914702068
0.1161821927 0.6732280461 0.1840238041
0.4329137102 0.6725261311 0.1859006638
0.7036087587 0.6713511864 0.1903562982
1.0000000000 0.6472877089 0.1512626841
0.0000000000 0.9535362783 0.1895475700
0.0654917220 0.9325398642 0.1822537575
0.4007629511 0.9346456092 0.1856260014
0.6842603189 0.9343556878 0.1898374914
1.0000000000 0.9351644160 0.1509117266
0.0000000000 0.0000000000 0.3790951400
0.2496223392 0.0195620661 0.3852597848
0.4873121233 0.0234073396 0.3860227359
0.7276874952 0.0177920195 0.3842221714
0.9862821393 0.0000000000 0.3790951400
0.0133211261 0.2468146792 0.3823758297
0.2074921798 0.2339971008 0.3700160220
0.4612191958 0.2290226596 0.3671625849
0.7234454871 0.2244296941 0.3670099947
1.0000000000 0.1317311360 0.3421377890
0.0160677501 0.4868390936 0.3829709316
0.1751888304 0.4441901274 0.3636377508
0.4479285878 0.4427405203 0.3643396658
0.7142900740 0.4406347753 0.3659266041
1.0000000000 0.3913633936 0.3521477073
0.0119630732 0.7233691920 0.3819485771
0.0925307088 0.6766918441 0.3632715343
0.4273289082 0.6758678569 0.3644617380
0.7000228885 0.6747539483 0.3664759289
1.0000000000 0.6670634012 0.3509727626
0.0000000000 0.9535362783 0.3790951400
0.0674753948 0.9349507897 0.3615930419
0.3935606928 0.9380178531 0.3637903410
0.6804303044 0.9378042267 0.3662928206
1.0000000000 0.9427786679 0.3592431525
0.0000000000 0.0000000000 0.5686427100
0.2480964370 0.0178072786 0.5740901808
0.4879377432 0.0219272145 0.5751888304
0.7297779812 0.0163271534 0.5733882658
0.9862821393 0.0000000000 0.5686427100
0.0095674067 0.2455939574 0.5716945144
0.1731898985 0.2562142367 0.5666285191
0.4487525750 0.2528419928 0.5641870756
0.7153429465 0.2481269551 0.5626764324
1.0000000000 0.1568932631 0.5428397040
0.0122835126 0.4850232700 0.5724879835
0.1145037003 0.4541390097 0.5602807660
0.4356145571 0.4527504387 0.5604180972
0.7064774548 0.4507972839 0.5609521630
1.0000000000 0.4045777066 0.5490653849
0.0086366064 0.7214160372 0.5713740749
0.0731364920 0.6822308690 0.5579308766
0.4149385824 0.6826581216 0.5598535134
0.6927901122 0.6814831769 0.5609369039
1.0000000000 0.6760967422 0.5524834058
0.0000000000 0.9535362783 0.5686427100
0.0732127871 0.9385214008 0.5560997940
0.3803006027 0.9429159991 0.5592278935
0.6728465705 0.9427328908 0.5606622416
0.9989623865 0.9411154345 0.5625085832
0.0000000000 0.0000000000 0.7574425879
0.2468146792 0.0000000000 0.7574425879
0.4936293584 0.0000000000 0.7574425879
0.7404440375 0.0000000000 0.7574425879
0.9862821393 0.0000000000 0.7574425879
0.0000000000 0.2386205844 0.7574425879
0.0832227054 0.2861676967 0.7625238422
0.4287022202 0.2834363317 0.7608148318
0.7026169223 0.2798962387 0.7596246281
1.0000000000 0.2027466239 0.7512626841
0.0000000000 0.4772259098 0.7574425879
0.0703593500 0.4686655985 0.7557640955
0.4157015335 0.4689097429 0.7580376898
0.6944686046 0.4672465095 0.7581750210
1.0000000000 0.4314335851 0.7546196689
0.0000000000 0.7158464942 0.7574425879
0.0811474784 0.6902876326 0.7523918517
0.3941863127 0.6932021057 0.7568169680
0.6813153277 0.6921950103 0.7575341421
0.9999847410 0.6887617304 0.7571984436
0.0000000000 0.9535362783 0.7574425879
0.0735942626 0.9479209583 0.7501792935
0.3612878614 0.9562218662 0.7555352102
0.6616769665 0.9551537346 0.7564507515
0.9862821393 0.9535362783 0.7574425879
