3D_LUT_4701_33point.cube
# 3D LUT 4701 33point.cube
# 08/05/2022 10:13:50 AM
# CalMAN 5 (22.2.15.847, 08/05/2022 10:13:50 AM, CubeGenerator, 3)
# LUT_ORDER BGR
LUT_3D_SIZE 33
DOMAIN_MIN 0.0 0.0 0.0
DOMAIN_MAX 1.0 1.0 1.0
0.0000009547 0.0000009547 0.0000009547
0.0174177200 0.0004404432 0.0002939470
0.0690657541 0.0001637282 0.0033703663
0.1087011032 0.0000497867 0.0023937252
0.1508919964 0.0002288376 0.0002125602
0.1927898974 0.0003265017 0.0004404432
0.2450564707 0.0017426312 0.0010589825
0.2961510748 0.0014659163 0.0009775957
0.3452435648 0.0006846034 0.0001962829
0.3942383906 0.0001474508 0.0000660641
0.4360223501 0.0003916111 0.0002451149
0.4737532492 0.0044121167 0.0031099287
0.5116631992 0.0001637282 0.0001800055
0.5469199410 0.0003590564 0.0002451149
0.5776515792 0.0022472291 0.0023286158
0.6050951927 0.0042167885 0.0050632108
0.6331247907 0.0021332876 0.0022797838
0.6602103024 0.0068862741 0.0030285419
0.6880445723 0.0107114515 0.0048353279
0.7142185523 0.0186547987 0.0004729979
0.7360953118 0.0390340419 0.0048516052
0.7554165271 0.0475145416 0.0053562031
0.7748028519 0.0675356831 0.0048190505
0.7940101258 0.0733141426 0.0056003634
0.8134290053 0.0769602692 0.0032075928
0.8343942331 0.0835525962 0.0037773001
0.8571336922 0.0937259405 0.0050957655
0.8755759306 0.1087173806 0.0049329920
0.8927322583 0.1181582440 0.0042493432
0.9095467617 0.1282339241 0.0043307300
0.9255311202 0.1342077119 0.0040214603
0.9415968654 0.1430625907 0.0029308778
0.9574021730 0.1490363784 0.0037610227
0.0007985449 0.0512257776 0.0016449671
0.0487190656 0.0452194352 0.0003916111
0.1071384775 0.0376992991 0.0017589086
0.1553519906 0.0221218744 0.0009613184
0.2013843386 0.0105649553 0.0000172320
0.2505256606 0.0020681782 0.0011403692
0.2958580825 0.0014496389 0.0009775957
0.3377397061 0.0012054786 0.0004078885
0.3836092806 0.0013845295 0.0007985449
0.4232446297 0.0014170842 0.0010915372
0.4600802745 0.0040051830 0.0027355496
0.4960857745 0.0012054786 0.0009450410
0.5313425163 0.0000009547 0.0000172320
0.5620578772 0.0077978057 0.0002125602
0.5881504705 0.0215684445 0.0029959872
0.6138686847 0.0290885805 0.0025727761
0.6395868990 0.0346879892 0.0001800055
0.6640517572 0.0491422767 0.0035494172
0.6892002642 0.0581762064 0.0025890535
0.7144301579 0.0603573714 0.0032889795
0.7359488156 0.0775136991 0.0081559074
0.7552211989 0.0838944206 0.0048516052
0.7746238011 0.0967698051 0.0047376638
0.7940752353 0.1015227915 0.0056329181
0.8136243335 0.1055107425 0.0035494172
0.8346546708 0.1115821943 0.0040865697
0.8573778524 0.1214951009 0.0048190505
0.8757712588 0.1320753789 0.0044283941
0.8928624772 0.1405396013 0.0033703663
0.9096281485 0.1491177652 0.0030285419
0.9256613390 0.1554333773 0.0030936513
0.9416945295 0.1642231467 0.0018077406
0.9576626106 0.1701155477 0.0035005851
0.0094092634 0.0958419961 0.0120299169
0.0571019012 0.0941328743 0.0069025514
0.0978115555 0.0863034685 0.0092953220
0.1466598852 0.0803785128 0.0062351800
0.1932131085 0.0740629007 0.0039563509
0.2493048593 0.0664451006 0.0022797838
0.2971602706 0.0638081698 0.0031913154
0.3440064861 0.0595435038 0.0049492693
0.3864578170 0.0624083176 0.0050957655
0.4254257947 0.0638244471 0.0048027732
0.4620661113 0.0699610083 0.0049818240
0.4981692754 0.0613991218 0.0036145266
0.5317657274 0.0614642312 0.0061375159
0.5617323302 0.0671938587 0.0042656206
0.5879714196 0.0770904880 0.0069188288
0.6137059112 0.0840409168 0.0032075928
0.6396845631 0.0826247873 0.0042330659
0.6641982534 0.0900147045 0.0064793403
0.6892979283 0.0989021380 0.0030448193
0.7145278220 0.1004810411 0.0056980275
0.7357534874 0.1122007336 0.0093604314
0.7551560895 0.1187930607 0.0045911676
0.7746889105 0.1264108609 0.0039563509
0.7942380088 0.1309847964 0.0038749642
0.8138196618 0.1361284393 0.0016937992
0.8349639404 0.1434044151 0.0016775218
0.8575894580 0.1521453524 0.0017263539
0.8759828644 0.1604305240 0.0028983231
0.8930740827 0.1684552579 0.0027355496
0.9097420899 0.1764637145 0.0019867915
0.9257752804 0.1831211510 0.0027355496
0.9419549671 0.1899739157 0.0028006590
0.9580207123 0.1971359500 0.0033215342
0.0043632847 0.1400024488 0.0023123385
0.0588761325 0.1389281436 0.0020356235
0.1018483385 0.1337682234 0.0064305082
0.1403931052 0.1290966237 0.0069188288
0.1880043562 0.1250598407 0.0043307300
0.2449425293 0.1194116000 0.0047376638
0.2939048004 0.1172792671 0.0046074450
0.3407510160 0.1140889063 0.0060072971
0.3843743161 0.1151794888 0.0065444497
0.4242212708 0.1153585397 0.0048027732
0.4612034118 0.1157003640 0.0074397040
0.4975181813 0.1136656952 0.0063653988
0.5313587936 0.1145935042 0.0071141570
0.5620090451 0.1176210914 0.0051445975
0.5880528064 0.1216904291 0.0062514574
0.6138524074 0.1249296219 0.0022146744
0.6400589421 0.1253691104 0.0040214603
0.6644261363 0.1311964020 0.0043144526
0.6894607018 0.1372190218 0.0016775218
0.7148045369 0.1419231762 0.0034517530
0.7356069912 0.1485968900 0.0064956176
0.7552211989 0.1539033063 0.0031262060
0.7748842387 0.1593887735 0.0024425573
0.7945635558 0.1647765767 0.0010427051
0.8141777635 0.1704248174 0.0008473769
0.8354685383 0.1786937116 0.0007008808
0.8579801144 0.1858883006 0.0023611705
0.8761619152 0.1949059530 0.0025890535
0.8933507977 0.2035003942 0.0026541629
0.9100188049 0.2111507490 0.0019379594
0.9259706086 0.2177105214 0.0029959872
0.9422316821 0.2252632122 0.0046237223
0.9582648726 0.2297883157 0.0036633586
0.0085140091 0.1841140694 0.0031099287
0.0676170698 0.1826165531 0.0005706620
0.1058525668 0.1792634188 0.0002288376
0.1401977770 0.1757312337 0.0000172320
0.1889809973 0.1719060563 0.0000172320
0.2411336292 0.1679832148 0.0000009547
0.2902423965 0.1665019758 0.0000172320
0.3375118232 0.1642068694 0.0000823414
0.3823559246 0.1648905181 0.0000172320
0.4225284263 0.1649393502 0.0003916111
0.4601779387 0.1641254826 0.0020193462
0.4964927082 0.1633604471 0.0016775218
0.5305937581 0.1641580373 0.0019867915
0.5610975135 0.1659811006 0.0002288376
0.5879876970 0.1667624134 0.0002288376
0.6140314582 0.1692040161 0.0001311735
0.6402054383 0.1709456926 0.0000986188
0.6647191286 0.1746894833 0.0000660641
0.6897862488 0.1804842202 0.0012868654
0.7151300840 0.1850418784 0.0035656945
0.7358837062 0.1894204857 0.0055352539
0.7555467459 0.1945804059 0.0023286158
0.7753237272 0.1995287206 0.0016937992
0.7949867669 0.2057792233 0.0015310257
0.8145684199 0.2127133747 0.0015798577
0.8356801439 0.2198102996 0.0028332137
0.8583544935 0.2300975853 0.0037447454
0.8763897982 0.2364783069 0.0036470813
0.8936112353 0.2446658143 0.0029308778
0.9102955198 0.2518278486 0.0022146744
0.9261659369 0.2568249953 0.0039889056
0.9425572291 0.2648008972 0.0041191244
0.9589647987 0.2668843981 0.0041191244
0.0036470813 0.2391315150 0.0004241658
0.0474168775 0.2334669970 0.0029471552
0.0980231611 0.2308788982 0.0042005112
0.1406698201 0.2283884635 0.0018565727
0.1875485904 0.2243354032 0.0000009547
0.2421591023 0.2204125616 0.0000335094
0.2909423226 0.2187522718 0.0008799316
0.3373164949 0.2154479696 0.0032401475
0.3820792096 0.2163757786 0.0032889795
0.4223819301 0.2164083333 0.0027355496
0.4602267707 0.2155619111 0.0046237223
0.4968996420 0.2140969495 0.0033215342
0.5314239030 0.2146015474 0.0023611705
0.5622857601 0.2174500838 0.0002125602
0.5879388649 0.2186057757 0.0000660641
0.6141128450 0.2204125616 0.0000335094
0.6406612041 0.2238959147 0.0001148961
0.6651260624 0.2275420413 0.0029959872
0.6902420146 0.2318229845 0.0032401475
0.7157160686 0.2383339248 0.0041354018
0.7364045814 0.2414103441 0.0059096330
0.7560513438 0.2437705600 0.0023123385
0.7758771571 0.2487677067 0.0009775957
0.7955076421 0.2542368966 0.0020519009
0.8150079084 0.2612361574 0.0023286158
0.8363149605 0.2681051994 0.0028820458
0.8588265367 0.2747951906 0.0051120428
0.8767641772 0.2798248920 0.0036633586
0.8939856144 0.2854243007 0.0025076667
0.9106536216 0.2916422487 0.0028657684
0.9265240386 0.2954348714 0.0045911676
0.9429153308 0.2998948655 0.0047051091
0.9604460376 0.3045013558 0.0050306561
0.0370807598 0.2867915981 0.0051120428
0.0726956033 0.2844802143 0.0043144526
0.1135029217 0.2827710925 0.0028332137
0.1483852844 0.2807852557 0.0026867176
0.1895018725 0.2787668642 0.0016124124
0.2428915831 0.2762113201 0.0019705141
0.2922770653 0.2751858470 0.0022797838
0.3381303625 0.2729558500 0.0039075189
0.3827628583 0.2736394987 0.0035819719
0.4229516374 0.2734278931 0.0032238701
0.4608290327 0.2727605217 0.0028820458
0.4975019040 0.2725000841 0.0021658423
0.5319610556 0.2731349008 0.0015798577
0.5616021114 0.2737697175 0.0000009547
0.5870598880 0.2723210333 0.0000172320
0.6146337202 0.2750393509 0.0000172320
0.6411820794 0.2778878872 0.0026541629
0.6656794923 0.2797597826 0.0061212386
0.6908279992 0.2827548151 0.0035656945
0.7158951194 0.2867915981 0.0052097069
0.7369091793 0.2894610836 0.0058770783
0.7565559417 0.2917887448 0.0009938731
0.7762515361 0.2951744338 0.0015147483
0.7959145759 0.2991298300 0.0020030688
0.8154962289 0.3037363203 0.0021007329
0.8367707264 0.3090590140 0.0028657684
0.8594287986 0.3142514889 0.0032401475
0.8769595054 0.3197044014 0.0029634325
0.8943111614 0.3254991383 0.0019379594
0.9108815045 0.3297149721 0.0027355496
0.9268333082 0.3337680325 0.0047051091
0.9432571552 0.3381791945 0.0049167146
0.9608041393 0.3411742271 0.0061700706
0.0434614813 0.3289824913 0.0244820903
0.0791088795 0.3276477486 0.0224799761
0.1167095598 0.3265246114 0.0175479388
0.1534149858 0.3250922045 0.0147482345
0.1937177063 0.3236109656 0.0125996242
0.2463749361 0.3217390702 0.0092302126
0.2941489607 0.3210879762 0.0083024036
0.3398394843 0.3198020655 0.0077815284
0.3841464331 0.3205182689 0.0023937252
0.4239445558 0.3207787066 0.0000335094
0.4615452361 0.3203066634 0.0000172320
0.4976809549 0.3200136711 0.0000172320
0.5311960201 0.3200625031 0.0000009547
0.5596651066 0.3192811903 0.0000009547
0.5882644120 0.3217227929 0.0000497867
0.6155940839 0.3225366604 0.0006520487
0.6417680640 0.3234644694 0.0021007329
0.6662817543 0.3260037362 0.0035494172
0.6915279253 0.3290638781 0.0019216821
0.7167252643 0.3322705162 0.0025727761
0.7374788866 0.3346144547 0.0013519748
0.7570442622 0.3363235765 0.0009450410
0.7766421926 0.3392860544 0.0013682521
0.7962564003 0.3430949545 0.0038586868
0.8158543306 0.3481409332 0.0035168625
0.8370962734 0.3526823141 0.0039563509
0.8593311345 0.3569469800 0.0053562031
0.8772687751 0.3602675596 0.0031099287
0.8945227669 0.3639462408 0.0028820458
0.9112396062 0.3681946294 0.0040865697
0.9270611911 0.3708966696 0.0053562031
0.9436315342 0.3742498039 0.0077652510
0.9609669128 0.3772285591 0.0085140091
0.0514699379 0.3705548452 0.0377644085
0.0849036164 0.3698060871 0.0358436811
0.1200301394 0.3690573290 0.0343136101
0.1557752017 0.3682760161 0.0332718597
0.1978033214 0.3672830977 0.0325068242
0.2487839840 0.3663552887 0.0305535421
0.2954674261 0.3658018588 0.0300163895
0.3397418202 0.3648903272 0.0287467562
0.3842929293 0.3653949250 0.0262725988
0.4245305404 0.3659320776 0.0241565432
0.4622451622 0.3658018588 0.0231147928
0.4982994942 0.3654112024 0.0090023297
0.5325307629 0.3662576246 0.0090348844
0.5630182409 0.3670877695 0.0008473769
0.5901525846 0.3674621486 0.0028494911
0.6162940100 0.3679179144 0.0018240180
0.6422889392 0.3691875478 0.0018240180
0.6670630671 0.3707990055 0.0026867176
0.6923417929 0.3727197329 0.0013519748
0.7167089870 0.3749334526 0.0014333616
0.7382113674 0.3767076838 0.0026378855
0.7577441883 0.3781563681 0.0017100765
0.7774560601 0.3803375331 0.0035982492
0.7970214357 0.3829581865 0.0052748163
0.8165542567 0.3863275982 0.0036633586
0.8380566371 0.3899248927 0.0038912415
0.8606821547 0.3936198513 0.0038261321
0.8777733730 0.3965660518 0.0036633586
0.8950273648 0.3999842955 0.0039237962
0.9118418682 0.4032885977 0.0047864958
0.9279890001 0.4058929738 0.0074071493
0.9448848903 0.4084973499 0.0097348105
0.9628388082 0.4113296090 0.0106626194
0.0619688291 0.4079927520 0.0476610378
0.0933841161 0.4078462559 0.0483121318
0.1272084510 0.4071788845 0.0459844706
0.1644184749 0.4065115131 0.0427452778
0.2051769613 0.4058115870 0.0413779804
0.2552298150 0.4047372819 0.0397990773
0.3009528933 0.4045419537 0.0402060111
0.3449668498 0.4039234143 0.0389852098
0.3873042392 0.4045582310 0.0392619248
0.4264838225 0.4048512233 0.0382364517
0.4640845028 0.4047535592 0.0352902512
0.4996667917 0.4046721725 0.0262074894
0.5337352868 0.4052907118 0.0294141275
0.5637181670 0.4059255285 0.0183455290
0.5910315616 0.4067393960 0.0194523889
0.6172218190 0.4075532636 0.0110532759
0.6433957991 0.4087903422 0.0092464899
0.6681699270 0.4103366906 0.0056166407
0.6934649301 0.4123225274 0.0014008069
0.7171973075 0.4139502624 0.0040377377
0.7388461840 0.4154803334 0.0044446714
0.7584603917 0.4167825215 0.0039563509
0.7781722635 0.4186869715 0.0058770783
0.7978353033 0.4212425156 0.0083512356
0.8175960071 0.4241561614 0.0057468595
0.8389844461 0.4273953542 0.0054701445
0.8605031038 0.4305694376 0.0078140831
0.8783430803 0.4330110402 0.0059910198
0.8957435682 0.4363967292 0.0059584651
0.9126069036 0.4388708865 0.0072606531
0.9289330865 0.4409543874 0.0111509400
0.9452592693 0.4439982520 0.0128437845
0.9648409223 0.4458050379 0.0132669956
0.0774974218 0.4463910225 0.0623920402
0.1063408873 0.4460003661 0.0621316026
0.1375445688 0.4455608776 0.0596900000
0.1731919670 0.4450400024 0.0578343820
0.2130877538 0.4444377404 0.0560438734
0.2616430912 0.4438192011 0.0543021969
0.3048106254 0.4432983259 0.0551974512
0.3503709303 0.4431681071 0.0541882554
0.3909178111 0.4437378144 0.0537324896
0.4293160816 0.4438029238 0.0534069426
0.4659726755 0.4435913182 0.0536673802
0.5018642340 0.4437866464 0.0480028621
0.5356885689 0.4441284708 0.0435754227
0.5653296247 0.4448935063 0.0393270342
0.5920082026 0.4450400024 0.0401409017
0.6179868545 0.4457887606 0.0355832435
0.6441608345 0.4471072260 0.0299024481
0.6688535757 0.4482954726 0.0304884327
0.6936114262 0.4496627700 0.0191919513
0.7177507374 0.4518602124 0.0204941393
0.7395461101 0.4532275099 0.0128112297
0.7592742593 0.4544157565 0.0046888317
0.7791000725 0.4561899877 0.0066583912
0.7988607764 0.4581758245 0.0088558335
0.8188656405 0.4603895442 0.0033703663
0.8395378760 0.4630590297 0.0038424095
0.8592823025 0.4654192456 0.0062189027
0.8783105256 0.4680724538 0.0041516791
0.8960528379 0.4703187282 0.0035005851
0.9126394584 0.4724673385 0.0053236484
0.9293074656 0.4747136129 0.0092790446
0.9465126253 0.4766180629 0.0129902806
0.9633596834 0.4787341185 0.0131367768
0.0995206774 0.4821360849 0.0829666116
0.1277944357 0.4818268152 0.0814039859
0.1559705299 0.4814198814 0.0799553017
0.1883461806 0.4809315609 0.0782950119
0.2263863494 0.4803618536 0.0759999055
0.2680889221 0.4798898105 0.0752185926
0.3109960187 0.4795479861 0.0749581550
0.3531380799 0.4795479861 0.0744210025
0.3935710193 0.4797758690 0.0729560409
0.4319855671 0.4801502481 0.0724351657
0.4683491687 0.4803781310 0.0719142904
0.5029548165 0.4802641895 0.0620827706
0.5361443348 0.4805897365 0.0587947457
0.5646134213 0.4800525840 0.0515513246
0.5918779838 0.4805409045 0.0500863630
0.6191262690 0.4823314131 0.0525279657
0.6445677683 0.4828360109 0.0400106829
0.6691954000 0.4837149879 0.0429894381
0.6946857314 0.4857171020 0.0372435333
0.7188901520 0.4873773918 0.0298698934
0.7395298328 0.4880610405 0.0296908425
0.7594533101 0.4892330098 0.0216498312
0.7793279554 0.4906328620 0.0142273593
0.7990561046 0.4932372381 0.0085791185
0.8188819178 0.4962485480 0.0022960611
0.8406284585 0.4984459903 0.0009124863
0.8628307650 0.5011968626 0.0007985449
0.8796615457 0.5020595622 0.0023286158
0.8969480922 0.5045499969 0.0034843078
0.9134533259 0.5063730602 0.0064467856
0.9292098014 0.5075124747 0.0102882404
0.9459266407 0.5100680188 0.0116229831
0.9619923859 0.5111748787 0.0141459725
0.1022389949 0.5160418065 0.0872638322
0.1282827562 0.5158464783 0.0857663160
0.1570448350 0.5156348728 0.0834874868
0.1912272717 0.5152604937 0.0820062479
0.2316439337 0.5149349467 0.0803947902
0.2749742415 0.5145768450 0.0791414342
0.3165791501 0.5143164074 0.0798739150
0.3588514300 0.5143815168 0.0787507778
0.3979659040 0.5147884505 0.0769928239
0.4350131543 0.5148047279 0.0753976435
0.4707256620 0.5146093997 0.0753976435
0.5058359076 0.5148210052 0.0724188883
0.5386347694 0.5153744352 0.0682030545
0.5679502782 0.5158953104 0.0652242993
0.5936359377 0.5153256031 0.0635314548
0.6194192614 0.5158464783 0.0598690509
0.6457885696 0.5171812211 0.0585994175
0.6700580996 0.5178323151 0.0534883294
0.6953042707 0.5191670579 0.0496305972
0.7197365742 0.5210063985 0.0489306711
0.7403599777 0.5210715079 0.0429568834
0.7598765213 0.5215272738 0.0357134623
0.7796372251 0.5236758841 0.0335485746
0.7995118704 0.5256128888 0.0389038231
0.8191586328 0.5279568273 0.0286165374
0.8410028376 0.5297798906 0.0192245060
0.8634330269 0.5322703253 0.0173688880
0.8799545380 0.5335562360 0.0077489737
0.8975177995 0.5356234595 0.0084326224
0.9140555879 0.5373488587 0.0110044438
0.9298283408 0.5385371053 0.0162783055
0.9468707270 0.5398067387 0.0181502008
0.9640433321 0.5411740361 0.0188175722
0.1234646604 0.5473268747 0.1063571647
0.1438439035 0.5471478239 0.1055595745
0.1692854028 0.5469199410 0.1045178241
0.2028004681 0.5465455619 0.1034760736
0.2422893211 0.5463665110 0.1020924988
0.2821851078 0.5460735187 0.1014739595
0.3233179733 0.5458944679 0.1016204556
0.3634090883 0.5460735187 0.1002531582
0.4016445852 0.5463339563 0.0983161534
0.4386592809 0.5464967299 0.0966395863
0.4737695266 0.5464641752 0.0950118512
0.5080170726 0.5465618393 0.0910727323
0.5401322857 0.5469850504 0.0891357276
0.5692036342 0.5467734448 0.0833735454
0.5947590749 0.5464804525 0.0833247133
0.6210632738 0.5479616914 0.0855709877
0.6464396637 0.5483686252 0.0762766204
0.6698790488 0.5483523478 0.0766347222
0.6959553647 0.5503381846 0.0758534093
0.7206806606 0.5516403727 0.0676170698
0.7408320208 0.5516403727 0.0671775814
0.7606415567 0.5516240953 0.0605364222
0.7802232097 0.5526984005 0.0499724216
0.7998374174 0.5551888352 0.0483772412
0.8195330119 0.5577932113 0.0493538823
0.8410679470 0.5589814579 0.0411500975
0.8633516402 0.5611951776 0.0374225841
0.8802475303 0.5620090451 0.0281282168
0.8979084559 0.5644343704 0.0237658868
0.9148206234 0.5655249529 0.0175642162
0.9312281929 0.5668271410 0.0172549465
0.9478473681 0.5684223214 0.0218614368
0.9646781488 0.5689594739 0.0224962535
0.1296663310 0.5757634066 0.1218369253
0.1528127238 0.5756331878 0.1206649560
0.1791820321 0.5754704142 0.1193627680
0.2108577567 0.5752913634 0.1183698496
0.2494839101 0.5750472031 0.1174583179
0.2895913025 0.5749820937 0.1164816769
0.3274849751 0.5748030429 0.1167095598
0.3681620747 0.5748681523 0.1156352546
0.4054209306 0.5750960352 0.1135843084
0.4417031455 0.5751936993 0.1117124131
0.4747787223 0.5749169843 0.1100032913
0.5101168509 0.5752425313 0.1081965053
0.5409949853 0.5756494651 0.1054456331
0.5703593261 0.5760726762 0.1024343232
0.5960612630 0.5750960352 0.0994392906
0.6212748793 0.5751448672 0.0979743290
0.6476279103 0.5765935514 0.0970139653
0.6705789749 0.5770493173 0.0911703964
0.6942136882 0.5773585869 0.0894938293
0.7196714648 0.5790025994 0.0892008370
0.7411087358 0.5799141310 0.0811923804
0.7609345491 0.5802234007 0.0763417299
0.7812161281 0.5812325964 0.0754301982
0.8010582187 0.5821766828 0.0673891869
0.8208677546 0.5838044178 0.0605038675
0.8404331303 0.5855623717 0.0605038675
0.8613820807 0.5871901068 0.0620176612
0.8799219833 0.5882318573 0.0483935186
0.8973061939 0.5893875492 0.0377806858
0.9147717913 0.5909338975 0.0371295918
0.9317490682 0.5925616326 0.0455775369
0.9506145177 0.5936522151 0.0286816468
0.9696590181 0.5949381258 0.0230008513
0.1586400154 0.6022141016 0.1391723039
0.1773101368 0.6020676054 0.1385049325
0.2004239749 0.6019211093 0.1377724517
0.2285675144 0.6018071678 0.1370236936
0.2616593685 0.6017746131 0.1365516504
0.2986089548 0.6016118396 0.1361935487
0.3365351821 0.6014816208 0.1355587320
0.3741684171 0.6017420584 0.1348099739
0.4106785149 0.6019211093 0.1334426764
0.4457724832 0.6019536640 0.1319126054
0.4789294468 0.6018559999 0.1294058934
0.5107028355 0.6019373866 0.1275014434
0.5428017712 0.6021978242 0.1271270643
0.5692524662 0.6022792110 0.1240343676
0.5979819904 0.6029954144 0.1258248762
0.6231793294 0.6029465824 0.1191511624
0.6482952816 0.6033860708 0.1158631376
0.6735414527 0.6044440986 0.1176699235
0.6965739041 0.6046719815 0.1072849737
0.7193621952 0.6054695717 0.1062595006
0.7419388807 0.6066578183 0.1111915379
0.7613252055 0.6068694239 0.0955327264
0.7811998508 0.6078135102 0.0888915673
0.8017093128 0.6091970851 0.0957768867
0.8227233726 0.6102062808 0.0894287199
0.8425003538 0.6111178125 0.0751534832
0.8611704752 0.6125176646 0.0752185926
0.8800359247 0.6141616771 0.0831944945
0.8974689674 0.6148127711 0.0619525518
0.9146578498 0.6160172950 0.0518117622
0.9318955643 0.6172869284 0.0532930011
0.9510377288 0.6184426203 0.0509002306
0.9699682878 0.6199075819 0.0399292962
0.1638162130 0.6281439214 0.1536591461
0.1853185933 0.6280137026 0.1530731614
0.2111344717 0.6278997611 0.1524057901
0.2405150898 0.6278020970 0.1517872507
0.2716536619 0.6276556009 0.1514454264
0.3067313528 0.6275416594 0.1510222152
0.3436646618 0.6276393235 0.1501920704
0.3797841031 0.6277695423 0.1493293708
0.4160500407 0.6278997611 0.1483038977
0.4496302153 0.6279323158 0.1471482058
0.4841870311 0.6280625346 0.1458785724
0.5156674275 0.6282415855 0.1441368959
0.5468548316 0.6285671325 0.1423952193
0.5719056744 0.6282904175 0.1417441253
0.5976564434 0.6286159645 0.1389932530
0.6256046547 0.6295437735 0.1387653701
0.6498741847 0.6296414376 0.1325474221
0.6733949566 0.6300809261 0.1289826823
0.6996340460 0.6312854501 0.1300569874
0.7218200751 0.6316109971 0.1217392612
0.7418900486 0.6319039894 0.1189883889
0.7622530145 0.6326039155 0.1214137142
0.7819323316 0.6333363963 0.1102637289
0.8016767581 0.6346548617 0.1034760736
0.8219583371 0.6362337647 0.1080337318
0.8440467022 0.6372755152 0.1024994326
0.8641166757 0.6384312071 0.0916424396
0.8811427846 0.6393590161 0.0854570463
0.8993571401 0.6411332473 0.0830479984
0.9153740533 0.6412960208 0.0747628268
0.9316188494 0.6424679901 0.0719468451
0.9501913066 0.6436725140 0.0662009403
0.9699682878 0.6443887175 0.0589737966
0.1768218162 0.6530971001 0.1680320468
0.1946129606 0.6530157134 0.1674948942
0.2187197171 0.6529343266 0.1670879605
0.2505256606 0.6527715531 0.1667298587
0.2845778784 0.6528203852 0.1658020498
0.3170023612 0.6526576117 0.1661438741
0.3538217286 0.6526901664 0.1657043856
0.3889482516 0.6529017719 0.1642068694
0.4226098130 0.6530319907 0.1627581852
0.4562876518 0.6530808228 0.1613420556
0.4876215521 0.6530971001 0.1597305979
0.5215272738 0.6533087057 0.1583795778
0.5496708133 0.6534714792 0.1557752017
0.5778143528 0.6538295809 0.1536754234
0.6010258550 0.6535528659 0.1534149858
0.6261418072 0.6539760771 0.1504036759
0.6531296548 0.6549038861 0.1479620733
0.6750715237 0.6549689955 0.1440717865
0.6986085729 0.6554735933 0.1412558048
0.7237245252 0.6566618399 0.1407349295
0.7435503384 0.6567269493 0.1335728952
0.7628227217 0.6569873870 0.1293570614
0.7829415273 0.6578826413 0.1299104913
0.8030115008 0.6589243917 0.1261504232
0.8227884820 0.6599010328 0.1190534983
0.8422724709 0.6610892794 0.1153097076
0.8635306910 0.6625216862 0.1168886107
0.8816636598 0.6630751162 0.1053968010
0.8988362649 0.6639215384 0.0955001717
0.9160577020 0.6651260624 0.0938724366
0.9324652716 0.6664608051 0.1021901629
0.9510377288 0.6671607312 0.0924237524
0.9714006947 0.6680722628 0.0801343526
0.1999193770 0.6779037827 0.1853023160
0.2161316184 0.6778386733 0.1850256010
0.2371782329 0.6777084545 0.1846349446
0.2632382715 0.6776433451 0.1841954561
0.2932211517 0.6776596225 0.1838210771
0.3260851229 0.6775945131 0.1834466980
0.3602187275 0.6775782357 0.1828607134
0.3945802150 0.6777410092 0.1818515176
0.4278022879 0.6778386733 0.1806958257
0.4607964780 0.6779200601 0.1794099150
0.4917234445 0.6780014468 0.1777659026
0.5229759580 0.6781967750 0.1758777299
0.5516240953 0.6781642203 0.1740709440
0.5769842079 0.6783921032 0.1714828452
0.6047208136 0.6789455332 0.1707666417
0.6290066210 0.6791896934 0.1687970823
