3D_LUT_4701_33point.cube
# 3D LUT 4701 33point.cube
# 08/05/2022 10:13:50 AM
# CalMAN 5 (22.2.15.847, 08/05/2022 10:13:50 AM, CubeGenerator, 3)
# LUT_ORDER BGR
LUT_3D_SIZE 5
DOMAIN_MIN 0.0 0.0 0.0
DOMAIN_MAX 1.0 1.0 1.0
0.0000009547 0.0000009547 0.0000009547
0.3452435648 0.0006846034 0.0001962829
0.6331247907 0.0021332876 0.0022797838
0.8134290053 0.0769602692 0.0032075928
0.9574021730 0.1490363784 0.0037610227
0.0514699379 0.3705548452 0.0377644085
0.3842929293 0.3653949250 0.0262725988
0.6422889392 0.3691875478 0.0018240180
0.8165542567 0.3863275982 0.0036633586
0.9628388082 0.4113296090 0.0106626194
0.1638162130 0.6281439214 0.1536591461
0.4160500407 0.6278997611 0.1483038977
0.6498741847 0.6296414376 0.1325474221
0.8219583371 0.6362337647 0.1080337318
0.9699682878 0.6443887175 0.0589737966
0.2866451020 0.8030766102 0.2866125473
0.4695862474 0.8032882158 0.2832919677
0.6699441582 0.8045252945 0.2752997885
0.8328478848 0.8072436120 0.2525603294
0.9744933913 0.8112641177 0.2250516066
0.4076183730 0.9482217472 0.4095879324
0.5335399586 0.9489053959 0.4073904901
0.6962809118 0.9500285331 0.4010586006
0.8460325389 0.9511516703 0.3922362765
0.9884430809 0.9522422528 0.3765611877
0.0015147483 0.0023611705 0.1784821060
0.2340041495 0.0000009547 0.2592177659
0.5928220702 0.0000009547 0.2980392475
0.8074877723 0.0000009547 0.3059663173
0.9637991719 0.0376504670 0.3162861577
0.0756255264 0.3257595759 0.3894365722
0.3895667910 0.3204206048 0.3830070186
0.6441771119 0.3261339550 0.3714663769
0.8183122106 0.3511847978 0.3578259569
0.9680475604 0.3792306732 0.3368118971
0.1819003497 0.6170916002 0.4166685800
0.4203960933 0.6168637173 0.4144385830
0.6514368103 0.6187356126 0.4072277166
0.8238953419 0.6253442170 0.3979333493
0.9718564605 0.6335968339 0.3819978228
0.2758532184 0.7986166161 0.4697001889
0.4694234739 0.7987631123 0.4676492427
0.6708394125 0.8001792418 0.4637589558
0.8330269357 0.8026208444 0.4541390415
0.9753560909 0.8066739048 0.4443237990
0.4151873411 0.9455848163 0.5340120018
0.5376092963 0.9457964219 0.5326935364
0.6980063109 0.9470660553 0.5288520816
0.8473835591 0.9491821109 0.5244083648
0.9889639562 0.9484821848 0.5160743612
0.0072443758 0.0000009547 0.4234236806
0.1542288533 0.0000009547 0.4775947040
0.5343212715 0.0000009547 0.5407508250
0.7748028519 0.0000009547 0.5831044918
0.9414829239 0.0000335094 0.6056323452
0.0891520049 0.1792959736 0.6498253526
0.3975752475 0.1767567068 0.6463094448
0.6464722184 0.1910807755 0.6402705477
0.8198911136 0.2359248769 0.6341014318
0.9690567562 0.2786529227 0.6272974991
0.1899413610 0.5887852872 0.6529994360
0.4288603157 0.5884597402 0.6517298027
0.6554247613 0.5912594445 0.6491417039
0.8250022017 0.5974611152 0.6448444833
0.9729633204 0.6073251897 0.6398798913
0.2561739013 0.7864248804 0.6699116035
0.4706279979 0.7864737124 0.6683164231
0.6710998501 0.7879712287 0.6670142350
0.8331408771 0.7907221010 0.6642308081
0.9789208307 0.7951983725 0.6604544627
0.4202984292 0.9375438050 0.6995038272
0.5410600947 0.9377228559 0.6987550691
0.7009036794 0.9389436572 0.6970459472
0.8486857471 0.9409457714 0.6944252938
0.9895336634 0.9426223385 0.6905187296
0.0228543552 0.0000009547 0.6040697196
0.1259876497 0.0000009547 0.6382033242
0.4418008096 0.0000009547 0.6903396787
0.7384718050 0.0000172320 0.7379183751
0.9181249256 0.0004241658 0.7685686266
0.0557834358 0.0000009547 0.7784978106
0.2082208259 0.0000009547 0.7817858354
0.5644343704 0.0000009547 0.7896315185
0.8064622992 0.0000335094 0.8029626688
0.9585090329 0.0124205733 0.8067715689
0.2334344423 0.5296171171 0.8243022757
0.4474002183 0.5302844885 0.8237651231
0.6612683302 0.5337027321 0.8227396500
0.8277042420 0.5439900178 0.8201189965
0.9739887934 0.5553190540 0.8178401674
0.2854894101 0.7638481948 0.8339547447
0.4805897365 0.7640272457 0.8335315335
0.6757877271 0.7655084846 0.8325060604
0.8360545229 0.7687965095 0.8310085442
0.9812322145 0.7733216130 0.8293156997
0.4359897954 0.9255636749 0.8493693959
0.5497847547 0.9257915578 0.8489461847
0.7069100218 0.9267519215 0.8480997625
0.8530317998 0.9288028677 0.8468301291
0.9885244677 0.9308863686 0.8445675774
0.0368691542 0.0000009547 0.7434689517
0.1203882411 0.0000009547 0.7638644722
0.3475223939 0.0000009547 0.8046555133
0.7146254861 0.0000009547 0.8524946472
0.8931880242 0.0368854316 0.8882559869
0.0407757184 0.0000009547 0.8587451499
0.1530406067 0.0000009547 0.8657932428
0.4751856561 0.0000172320 0.8832588402
0.7689104509 0.0000009547 0.9064377877
0.9273379061 0.0427127231 0.9238545530
0.2641009711 0.3748195111 0.9818019218
0.4672097542 0.3764798009 0.9817368124
0.6698627714 0.3853997892 0.9803857923
0.8323921190 0.4054372080 0.9763490093
0.9747701063 0.4298695115 0.9710263156
0.3611628138 0.7267195577 0.9886709639
0.5121026876 0.7270451047 0.9885570224
0.6876050838 0.7287542266 0.9875315493
0.8417027636 0.7331491113 0.9859689236
0.9846341809 0.7388461840 0.9827785629
0.4624567678 0.9057378616 1.0000000000
0.5660295508 0.9061285180 0.9996907303
0.7141859976 0.9069586629 0.9989745269
0.8572313563 0.9089933318 0.9977211709
0.9857410407 0.9117279267 0.9878245416
