3D_LUT_4701_17point.cube
# 3D LUT 4701 17point.cube
# 08/05/2022 10:10:00 AM
# CalMAN 5 (22.2.15.847, 08/05/2022 10:10:00 AM, CubeGenerator, 3)
# LUT_ORDER BGR
LUT_3D_SIZE 17
DOMAIN_MIN 0.0 0.0 0.0
DOMAIN_MAX 1.0 1.0 1.0
0.0000009547 0.0000009547 0.0000009547
0.0685448788 0.0000009547 0.0027355496
0.1487433861 0.0003427790 0.0003427790
0.2421591023 0.0011892013 0.0007659902
0.3404580236 0.0010264278 0.0003265017
0.4321971727 0.0008473769 0.0007008808
0.5072357598 0.0000986188 0.0000660641
0.5745588826 0.0023286158 0.0019216821
0.6295274962 0.0040377377 0.0033378116
0.6848053794 0.0101254669 0.0044121167
0.7328886737 0.0361855055 0.0048190505
0.7713846083 0.0664451006 0.0057305822
0.8095387185 0.0818271971 0.0037773001
0.8517947211 0.0942468157 0.0054050351
0.8893465694 0.1176210914 0.0049818240
0.9227151385 0.1349890247 0.0045586129
0.9543745858 0.1496386404 0.0043144526
0.0093115993 0.0945723627 0.0124368507
0.0965419222 0.0853919369 0.0104347365
0.1906575644 0.0728095447 0.0048841599
0.2942954568 0.0632059078 0.0038912415
0.3827140263 0.0620176612 0.0051120428
0.4583060433 0.0688378711 0.0065118950
0.5268987995 0.0603736487 0.0064305082
0.5844880666 0.0757394679 0.0079931339
0.6359896045 0.0830805531 0.0041191244
0.6859610714 0.0984626496 0.0035982492
0.7327910096 0.1082290600 0.0110695532
0.7713194989 0.1261015912 0.0036959133
0.8099130976 0.1362749354 0.0022797838
0.8522667643 0.1501269609 0.0028983231
0.8897209484 0.1673158434 0.0035656945
0.9229592987 0.1826816625 0.0026216082
0.9547977969 0.1966476295 0.0035819719
0.0083186809 0.1812329783 0.0036959133
0.1059990630 0.1766264880 0.0007985449
0.1853837027 0.1695621178 0.0000172320
0.2871008678 0.1644021976 0.0000986188
0.3786609659 0.1625303022 0.0003265017
0.4561574330 0.1620419817 0.0043307300
0.5256779982 0.1616187706 0.0045097809
0.5843904025 0.1652811745 0.0006846034
0.6364128156 0.1693179575 0.0000172320
0.6864331145 0.1780263402 0.0014821936
0.7330514472 0.1870765472 0.0072118211
0.7719868702 0.1968755124 0.0022797838
0.8107269651 0.2099625024 0.0023937252
0.8529992451 0.2258166421 0.0042330659
0.8902581010 0.2418498326 0.0034517530
0.9233825099 0.2551972602 0.0036633586
0.9557744379 0.2663960776 0.0044121167
0.0241890979 0.2832919677 0.0063328441
0.1103776703 0.2794342356 0.0034680304
0.1862301250 0.2754462846 0.0022146744
0.2889564858 0.2719466542 0.0025564988
0.3788400168 0.2701073136 0.0038586868
0.4566783082 0.2697329345 0.0050632108
0.5268662448 0.2694562195 0.0027518270
0.5850903286 0.2707746849 0.0002288376
0.6373406246 0.2743719795 0.0019705141
0.6874097556 0.2794016809 0.0042005112
0.7340443656 0.2867590434 0.0088395562
0.7729146792 0.2923421747 0.0025890535
0.8116222194 0.3007087330 0.0034191983
0.8540572729 0.3108820773 0.0042818979
0.8909417498 0.3229761489 0.0023611705
0.9240010492 0.3319612465 0.0042818979
0.9570929033 0.3398720390 0.0061700706
0.0440311885 0.3675109806 0.0349972589
0.1162863487 0.3660134644 0.0330439768
0.1939781440 0.3641904011 0.0299350028
0.2915445845 0.3628393810 0.0271352984
0.3798980446 0.3621720096 0.0259633292
0.4576061172 0.3630835412 0.0235217266
0.5274196747 0.3634253656 0.0141134178
0.5863436846 0.3649391592 0.0041354018
0.6383986524 0.3663715661 0.0025727761
0.6887444983 0.3698060871 0.0025564988
0.7352000575 0.3742335265 0.0053562031
0.7740215391 0.3777819890 0.0043144526
0.8125500284 0.3834302297 0.0051608749
0.8552292421 0.3904783226 0.0044772261
0.8915928438 0.3976891890 0.0039237962
0.9250753543 0.4042489614 0.0063328441
0.9590624628 0.4099134794 0.0107440062
0.0727281580 0.4443237990 0.0614316765
0.1330357426 0.4434448220 0.0589900739
0.2075046225 0.4423379622 0.0552300059
0.3000739164 0.4410357741 0.0550835097
0.3857741682 0.4413938758 0.0540417593
0.4611708571 0.4414101532 0.0539115405
0.5307076996 0.4421263566 0.0440311885
0.5879225876 0.4426146772 0.0398316320
0.6399450007 0.4446981781 0.0311069720
0.6900141317 0.4472211674 0.0225288082
0.7365348002 0.4513393372 0.0182804196
0.7755841648 0.4542367056 0.0074071493
0.8146335293 0.4582897660 0.0049167146
0.8548874178 0.4633845768 0.0066258365
0.8925857622 0.4684631102 0.0033540889
0.9262636010 0.4731347099 0.0084326224
0.9604948697 0.4773993758 0.0136739293
0.0991137436 0.5128840005 0.0881753639
0.1543916269 0.5124445120 0.0843339091
0.2273467131 0.5118096953 0.0807040599
0.3121028786 0.5111423240 0.0801180752
0.3929687573 0.5116957539 0.0771393200
0.4659401208 0.5116631992 0.0763580072
0.5335399586 0.5123956800 0.0683658280
0.5896317094 0.5123468479 0.0641011621
0.6417355093 0.5139420283 0.0599178829
0.6916418668 0.5159278651 0.0514048285
0.7373649451 0.5184834092 0.0448938881
0.7760887626 0.5205506327 0.0350298136
0.8151055725 0.5247664666 0.0307325930
0.8583870482 0.5290636872 0.0187361854
0.8942297746 0.5327912005 0.0070978796
0.9270774685 0.5360303933 0.0145529063
0.9607064752 0.5388789297 0.0188501269
0.1301220968 0.5723614402 0.1210067804
0.1775542970 0.5720358932 0.1185489004
0.2486700426 0.5715801274 0.1168886107
0.3247178254 0.5712871351 0.1163351807
0.4021654605 0.5716940689 0.1132750388
0.4711325957 0.5714010765 0.1100521233
0.5372511946 0.5721986667 0.1055270198
0.5924965232 0.5715475727 0.0989672474
0.6438841196 0.5729148702 0.0973069577
0.6910233274 0.5736636283 0.0898519310
0.7383415862 0.5765121647 0.0821690214
0.7777490524 0.5774888057 0.0764882260
0.8167821396 0.5801582913 0.0621478800
0.8570685828 0.5837230311 0.0611386842
0.8939856144 0.5860018602 0.0412640389
0.9287214809 0.5893387171 0.0453984860
0.9657361766 0.5918942612 0.0231636248
0.1674135075 0.6235211538 0.1523406807
0.2115414055 0.6232932708 0.1512989302
0.2695376063 0.6230491106 0.1503873986
0.3407184613 0.6230816653 0.1491991520
0.4127620158 0.6233746576 0.1475876942
0.4800363066 0.6235374311 0.1453414198
0.5425250563 0.6240094743 0.1421998911
0.5941568129 0.6242373572 0.1390746398
0.6463582769 0.6251651662 0.1330682973
0.6966878455 0.6268091786 0.1308383003
0.7388787387 0.6275904914 0.1199650299
0.7785466426 0.6290391757 0.1111915379
0.8180843277 0.6316761065 0.1096126349
0.8599333965 0.6338084394 0.0926841900
0.8958900644 0.6365755891 0.0871336134
0.9287540356 0.6380731054 0.0726304939
0.9664198253 0.6403193798 0.0635802868
0.2002449240 0.6738507224 0.1836745809
0.2372433423 0.6736553942 0.1829746548
0.2928956047 0.6736228395 0.1823723928
0.3591281450 0.6735902848 0.1815422480
0.4255722909 0.6738832771 0.1796377979
0.4883052008 0.6739646638 0.1768218162
0.5484500119 0.6742576561 0.1735175140
0.6016606717 0.6749575822 0.1700178836
0.6501020676 0.6755110122 0.1658346045
0.6977947054 0.6764062664 0.1604793560
0.7424597559 0.6775782357 0.1580214761
0.7803371512 0.6787013729 0.1441206185
0.8208677546 0.6807360418 0.1455530254
0.8590381422 0.6824126089 0.1292105652
0.8957110135 0.6842193948 0.1247668484
0.9303817707 0.6862052316 0.1128355503
0.9689428147 0.6885328928 0.1145121174
0.2254422630 0.7224874465 0.2157572393
0.2667541793 0.7224874465 0.2145527153
0.3159280560 0.7223246730 0.2151061453
0.3793771694 0.7225525559 0.2137551252
0.4415240947 0.7227804388 0.2119971713
0.5014573002 0.7227967162 0.2100764439
0.5584443053 0.7231548179 0.2065768135
0.6056648999 0.7217875204 0.2044607579
0.6560758553 0.7233827008 0.2010425142
0.7019128751 0.7239035760 0.1976568252
0.7442990966 0.7241314589 0.1909831114
0.7828926953 0.7246686115 0.1871579340
0.8215676807 0.7275334253 0.1814445839
0.8629284291 0.7292588244 0.1777170705
0.8987874328 0.7301866334 0.1639464318
0.9316839588 0.7315702082 0.1621070911
0.9688939827 0.7329212284 0.1515593678
0.2444379314 0.7608857170 0.2467493152
0.2801504390 0.7608206076 0.2461796079
0.3276640259 0.7607717756 0.2455122365
0.3849277460 0.7608368850 0.2445844275
0.4456748191 0.7610484905 0.2430543566
0.5032966409 0.7612600961 0.2410196877
0.5596325519 0.7615368110 0.2383176475
0.6101086167 0.7619111901 0.2352412282
0.6569060002 0.7624157880 0.2319857580
0.7034103914 0.7630506047 0.2288116746
0.7449339132 0.7637668081 0.2251492707
0.7856272902 0.7644992889 0.2181337325
0.8241069474 0.7655735940 0.2141132269
0.8603728850 0.7663223522 0.2005216390
0.8971271431 0.7678361458 0.1989590133
0.9350859251 0.7688290642 0.1822747287
0.9727842695 0.7703265805 0.1867835549
0.2753160658 0.7994304837 0.2838779523
0.3121517106 0.7993979290 0.2833407998
0.3590630356 0.7993816516 0.2826571510
0.4098320927 0.7994304837 0.2816805100
0.4644751593 0.7995932572 0.2804922634
0.5195902690 0.7997885854 0.2787343095
0.5690083060 0.8000164683 0.2763578163
0.6182635695 0.8003094606 0.2732813970
0.6661678128 0.8008628905 0.2722884786
0.7088470266 0.8012861016 0.2673727186
0.7495241262 0.8022139106 0.2635638186
0.7882316663 0.8029463914 0.2596246997
0.8285832189 0.8036137628 0.2508186529
0.8669163800 0.8050624470 0.2514046375
0.8998129059 0.8054368261 0.2323275824
0.9330512562 0.8068855103 0.2355342205
0.9734679182 0.8078947061 0.2238470826
0.3202741087 0.8385449576 0.3177836740
0.3482060426 0.8385449576 0.3176371779
0.3883134349 0.8386426217 0.3171814120
0.4337597983 0.8387728405 0.3163187124
0.4841707537 0.8388867820 0.3152932393
0.5363559403 0.8389844461 0.3136980590
0.5835602576 0.8390658328 0.3110774055
0.6279323158 0.8399122551 0.3080660956
0.6737042262 0.8402540794 0.3072847828
0.7187599332 0.8408075093 0.3035735468
0.7553188630 0.8409051735 0.2981206343
0.7920405664 0.8429561197 0.2938071363
0.8312527044 0.8435095496 0.2937094722
0.8711322139 0.8444536359 0.2887937123
0.9050704902 0.8455279411 0.2822664946
0.9373647542 0.8466185236 0.2785715360
0.9756002512 0.8472858950 0.2714420563
0.3547658150 0.8780175332 0.3496547268
0.3789051262 0.8780500879 0.3493291798
0.4129247893 0.8781477520 0.3487431952
0.4550994052 0.8783105256 0.3479618824
0.5002527763 0.8783430803 0.3464480887
0.5484337346 0.8784407444 0.3448854631
0.5921058667 0.8786849046 0.3422973643
0.6359733271 0.8789616196 0.3404905783
0.6813708584 0.8793522760 0.3392372223
0.7228943803 0.8795476042 0.3356073731
0.7600392948 0.8797103777 0.3320263559
0.7965493926 0.8802149756 0.3286569443
0.8358754721 0.8817124919 0.3272082601
0.8730366639 0.8826077462 0.3235946882
0.9072516552 0.8833727816 0.3185812642
0.9399202983 0.8841215398 0.3150490791
0.9730447071 0.8848214659 0.3096938307
0.3849603007 0.9120209190 0.3797678258
0.4063650170 0.9120860284 0.3794097241
0.4369827138 0.9121674152 0.3789539582
0.4752833202 0.9122162472 0.3783028642
0.5180439207 0.9122325246 0.3773750552
0.5625624751 0.9123627434 0.3758775390
0.6022792110 0.9123952981 0.3731266667
0.6460490072 0.9127533998 0.3724430179
0.6867912162 0.9128836186 0.3693503213
0.7304470710 0.9135184353 0.3684876217
0.7646620624 0.9127208451 0.3606582160
0.8010744961 0.9133719391 0.3568167612
0.8394402119 0.9151136157 0.3591118676
0.8780500879 0.9157972644 0.3549936979
0.9104094613 0.9163669717 0.3509731923
0.9436478116 0.9170017884 0.3472131242
0.9817856445 0.9174412768 0.3426880207
0.4136572701 0.9429967176 0.4083834085
0.4327343252 0.9430129949 0.4081392482
0.4599500557 0.9429478855 0.4077160371
0.4951091334 0.9429478855 0.4072114392
0.5352816352 0.9431106590 0.4062510755
0.5751123125 0.9435501475 0.4047861139
0.6134454736 0.9439733586 0.4035490353
0.6552782651 0.9439570813 0.4025561169
0.6957112045 0.9446081753 0.4007167762
0.7356883780 0.9451778826 0.3991704279
0.7689918377 0.9467730629 0.3933268590
0.8053228846 0.9461870783 0.3935710193
0.8437537098 0.9464963480 0.3920572256
0.8806381867 0.9478799228 0.3883134349
0.9142834708 0.9485147395 0.3856765041
0.9453243787 0.9484659074 0.3829744639
0.9849597279 0.9485961262 0.3763821368
0.0009775957 0.0004404432 0.0169782315
0.0384480572 0.0000009547 0.0467495061
0.1289338502 0.0000009547 0.0450078296
0.2335321064 0.0000009547 0.0415081992
0.3357375919 0.0000009547 0.0390991513
0.4242701028 0.0000009547 0.0318068981
0.5028408751 0.0000009547 0.0274608455
0.5742333356 0.0000009547 0.0184106384
0.6306180787 0.0000172320 0.0198756000
0.6868888803 0.0025890535 0.0167829033
0.7372672810 0.0174502747 0.0054701445
0.7749981801 0.0541394234 0.0054701445
0.8125500284 0.0684634921 0.0035331398
0.8549688045 0.0831619398 0.0051120428
0.8916416758 0.1093359199 0.0051120428
0.9246195885 0.1268340720 0.0049004373
0.9560348755 0.1416627385 0.0044283941
0.0000009547 0.0736234123 0.0998625017
0.0989998021 0.0672426908 0.0953862303
0.1964685786 0.0627826967 0.0787833325
0.3020597532 0.0432824304 0.0661195536
0.3898272286 0.0399944056 0.0562554790
0.4650123118 0.0406454996 0.0540580366
0.5332306890 0.0446985599 0.0422895120
0.5894526586 0.0584854760 0.0380411235
0.6408890870 0.0624734270 0.0276887284
0.6903885108 0.0866615702 0.0191268419
0.7363883041 0.1021413308 0.0193058927
0.7746238011 0.1194441547 0.0046888317
0.8128430207 0.1290315143 0.0028820458
0.8553106289 0.1433393057 0.0031262060
0.8919021135 0.1607397937 0.0035168625
0.9248149167 0.1757800658 0.0028494911
0.9564743640 0.1898436969 0.0035982492
0.0000172320 0.1698388327 0.0896403254
0.0930097371 0.1853023160 0.0871987228
0.1836908583 0.1783844419 0.0789461060
0.2902098418 0.1526987824 0.0724188883
0.3817862173 0.1509733832 0.0674380190
0.4598686690 0.1509571058 0.0644429864
0.5296822265 0.1509733832 0.0522024186
0.5878737555 0.1558728658 0.0484749053
0.6395706216 0.1601700864 0.0383992252
0.6895909206 0.1703108759 0.0348507627
0.7358674289 0.1803702787 0.0332230276
0.7745912464 0.1913412131 0.0110695532
0.8133964506 0.2042165976 0.0023123385
0.8558640588 0.2199242411 0.0043470073
0.8923416019 0.2364783069 0.0032727022
0.9251567411 0.2496629610 0.0037284680
0.9573045089 0.2604873993 0.0043144526
0.0227241364 0.2723047559 0.0933190067
0.1035086283 0.2686749067 0.0928306862
0.1864905626 0.2648008972 0.0871987228
0.2882565597 0.2615617044 0.0829666116
0.3791981185 0.2597874732 0.0804436222
0.4577363360 0.2604385672 0.0753325341
0.5278591632 0.2606013407 0.0682844412
0.5868971145 0.2623755719 0.0642639356
0.6388869729 0.2665751284 0.0560113187
0.6893467603 0.2711327867 0.0544975251
0.7359650930 0.2803620446 0.0503305233
0.7745586917 0.2858637891 0.0306674836
0.8136243335 0.2961999069 0.0246936958
0.8565639849 0.3068941263 0.0101417442
0.8929275866 0.3195579052 0.0022146744
0.9257101710 0.3284453388 0.0044446714
0.9589322440 0.3362421898 0.0061212386
0.0499073122 0.3621231775 0.1094498613
0.1190534983 0.3598280711 0.1079523451
0.1954593829 0.3575655193 0.1044364373
0.2911702055 0.3554657411 0.1019460026
0.3801747596 0.3553029676 0.0998787791
0.4578665548 0.3557912881 0.0965093675
0.5275987256 0.3560191710 0.0896077707
0.5865715675 0.3580212851 0.0824945684
0.6386102579 0.3596978523 0.0782136252
0.6894932565 0.3631323733 0.0766021675
0.7359650930 0.3698711965 0.0719468451
0.7748191293 0.3717756466 0.0552137285
0.8138522165 0.3797841031 0.0531465050
0.8567430358 0.3871251883 0.0355506888
0.8931229148 0.3949383167 0.0232938437
0.9263612651 0.4017910814 0.0143413007
0.9605599791 0.4077323144 0.0107277288
0.0831782172 0.4406939498 0.1297151631
0.1382282175 0.4398312502 0.1280060412
0.2112646905 0.4385453395 0.1252388916
0.3013109950 0.4373408155 0.1239855356
0.3867996413 0.4379919095 0.1212997727
0.4618707831 0.4377151946 0.1190860530
0.5309355825 0.4384965074 0.1136005858
0.5878574782 0.4382849019 0.1073663604
0.6400589421 0.4406939498 0.1038016206
0.6897048620 0.4425170131 0.1003670996
0.7365836323 0.4468793431 0.0948653550
0.7755516101 0.4485559102 0.0836339830
0.8151381272 0.4543832018 0.0811435483
0.8553106289 0.4601942160 0.0659079480
0.8935949579 0.4653541362 0.0509165079
0.9268170309 0.4709860996 0.0430382702
0.9631318005 0.4754135390 0.0285677053
0.1035737377 0.5106051714 0.1493456481
0.1571262218 0.5101331282 0.1469040455
0.2306672926 0.5093843701 0.1449507634
0.3132911252 0.5087495534 0.1441531732
0.3946127697 0.5093680927 0.1415487971
0.4667051563 0.5088146628 0.1406209881
0.5344026582 0.5100029094 0.1345495363
0.5894038265 0.5092378739 0.1309034097
0.6422075525 0.5115004257 0.1278107130
0.6918209176 0.5128677231 0.1230414492
0.7373649451 0.5152604937 0.1148213871
0.7761050400 0.5167742873 0.1104590571
0.8151869592 0.5217388793 0.1002206035
0.8580777785 0.5264267563 0.0922121469
0.8946041537 0.5301868244 0.0796623094
0.9273541835 0.5335074039 0.0719305678
0.9639131133 0.5367303194 0.0595597812
0.1328404144 0.5705058223 0.1761707222
0.1798168488 0.5702453846 0.1745429871
0.2507535435 0.5698058962 0.1731594123
0.3267199396 0.5694803492 0.1729152520
0.4038257502 0.5701639979 0.1707991964
0.4722069009 0.5697245094 0.1677227771
0.5386022147 0.5707011505 0.1653625613
0.5928220702 0.5697570641 0.1568657842
0.6444863816 0.5714661860 0.1555961508
0.6912674877 0.5718242877 0.1487108314
0.7385694691 0.5747216561 0.1441857279
0.7778955486 0.5751285899 0.1373492406
0.8167984169 0.5779282942 0.1266387438
0.8572476336 0.5818836905 0.1239367035
0.8940507238 0.5838858046 0.1093196425
0.9281517736 0.5872063842 0.1064385514
0.9655082937 0.5896317094 0.0932213426
0.1709456926 0.6221050242 0.2010750689
0.2137714025 0.6219096960 0.2002937561
0.2709211811 0.6216655358 0.1997240488
0.3420532040 0.6217469225 0.1985032475
0.4138200436 0.6220073601 0.1966801842
0.4807199553 0.6221538563 0.1942060269
0.5432575370 0.6225933448 0.1904134041
0.5946125788 0.6228212277 0.1871579340
0.6465373278 0.6237164820 0.1835931942
0.6968343417 0.6252953850 0.1789215945
0.7392205631 0.6261743619 0.1739244478
0.7785791973 0.6276067688 0.1663392023
0.8182796559 0.6301297582 0.1622698646
0.8600147833 0.6322132591 0.1513803170
0.8960853926 0.6351269049 0.1497200272
0.9285098754 0.6367220852 0.1332473482
0.9671360288 0.6387730314 0.1328078597
0.2013192292 0.6727275852 0.2283070768
0.2384641436 0.6724997023 0.2276559827
0.2941652380 0.6723857608 0.2270211660
0.3602187275 0.6724345929 0.2261910212
0.4263536037 0.6727275852 0.2242051844
0.4888260760 0.6728415266 0.2216333629
0.5487430043 0.6730531322 0.2184918342
0.6020513281 0.6737042262 0.2151712547
0.6504601693 0.6743390429 0.2117041790
0.6979737562 0.6752831292 0.2079603883
0.7427527482 0.6765039306 0.2042165976
0.7805162021 0.6774805716 0.1961593090
0.8208840320 0.6794826857 0.1940758081
0.8591358063 0.6812406396 0.1838536318
0.8958249550 0.6830637029 0.1775542970
0.9302515519 0.6850007077 0.1684715353
0.9684382168 0.6872958141 0.1666159173
0.2288279520 0.7216410243 0.2635475412
0.2701887003 0.7217061337 0.2625546228
0.3178976155 0.7214782508 0.2631243301
0.3808095762 0.7217224110 0.2615779818
0.4429890562 0.7219828486 0.2602920710
0.5028897071 0.7220316807 0.2585829492
0.5593232823 0.7224060598 0.2545136115
0.6058113961 0.7208271567 0.2474492413
0.6561735194 0.7224711692 0.2460331118
0.7022709768 0.7231059858 0.2419149420
0.7444781474 0.7232362046 0.2361202051
0.7831531329 0.7237245252 0.2319857580
0.8217467316 0.7268172218 0.2273304357
0.8632865308 0.7284449569 0.2223170117
0.8989990384 0.7295029847 0.2122576089
0.9317653455 0.7307075087 0.2100438892
0.9689916468 0.7321236382 0.2018075497
0.2456750100 0.7602020683 0.2835686827
0.2812247442 0.7601532362 0.2830803621
0.3288522725 0.7601206815 0.2824618228
0.3859369417 0.7601695136 0.2815502912
0.4464724093 0.7603322871 0.2800690522
0.5038337935 0.7605438926 0.2781483249
0.5600557631 0.7608206076 0.2756578902
0.6104504411 0.7611949867 0.2726140256
0.6571338831 0.7617158619 0.2695376063
0.7036057196 0.7623832333 0.2664937417
0.7452431829 0.7630994367 0.2626360096
0.7856761222 0.7638156401 0.2575574761
0.8241720568 0.7648736679 0.2536020799
0.8604542717 0.7655898714 0.2429078604
0.8973550260 0.7671362197 0.2407755275
0.9351673118 0.7681128608 0.2280466391
0.9724424451 0.7695615450 0.2297232063
0.2752021244 0.7987631123 0.3166117048
0.3120377692 0.7987142802 0.3159606107
0.3590955903 0.7986980029 0.3152118526
0.4097344286 0.7986817255 0.3142514889
0.4643774952 0.7988282217 0.3130469649
0.5196879331 0.7990072725 0.3114517846
0.5690571380 0.7993328196 0.3090101819
0.6183286789 0.7996583666 0.3062104776
0.6663468637 0.8002931833 0.3050710630
0.7088795813 0.8006838397 0.3008063971
0.7495241262 0.8015628166 0.2972904894
0.7883293304 0.8022790200 0.2946047265
0.8285018322 0.8029138367 0.2877031298
0.8667536065 0.8043136889 0.2877519618
0.8997640739 0.8047531774 0.2720931504
0.9331977524 0.8062018616 0.2740138778
0.9733865315 0.8072273347 0.2641660805
0.3219995079 0.8378938636 0.3450645139
0.3496710042 0.8379101409 0.3449668498
0.3897621192 0.8380078050 0.3443971425
0.4346224979 0.8381543012 0.3434693335
0.4847241836 0.8382356879 0.3424764151
0.5368117061 0.8383333520 0.3406370745
0.5839183593 0.8384798482 0.3384070774
0.6281439214 0.8392937157 0.3367956197
0.6738832771 0.8396518174 0.3352818261
0.7188738746 0.8401726927 0.3325309538
0.7554002498 0.8403680209 0.3282011785
0.7921382305 0.8423864124 0.3249294310
0.8313340912 0.8428910102 0.3246689934
0.8712298780 0.8438513739 0.3210065895
0.9051355996 0.8449256791 0.3153257940
0.9374461409 0.8459674295 0.3127051406
0.9756165285 0.8467487424 0.3073336148
0.3557099013 0.8775454901 0.3757798748
0.3797352711 0.8775780448 0.3754706052
0.4135921607 0.8776919862 0.3749008979
0.4556365578 0.8777570956 0.3741684171
0.5005457686 0.8778059277 0.3728825064
0.5486616175 0.8779361465 0.3714338222
0.5924476911 0.8782128614 0.3690898837
0.6361523780 0.8784895764 0.3672830977
0.6814359678 0.8788151234 0.3661274058
0.7230897085 0.8791081157 0.3625626660
0.7601044042 0.8791895025 0.3593397506
0.7965819473 0.8796941004 0.3561656672
0.8358754721 0.8812241713 0.3537403419
0.8731343280 0.8821357030 0.3508104187
0.9072842099 0.8829170158 0.3463992567
0.9398877436 0.8836332193 0.3434367788
0.9742817858 0.8843005906 0.3387651792
0.3859369417 0.9114349344 0.4018724681
0.4070974978 0.9115163211 0.4014980891
0.4376012531 0.9115814306 0.4010260459
0.4756576992 0.9116302626 0.4004726160
0.5183369130 0.9116790947 0.3995936390
0.5629368541 0.9118255908 0.3982100642
0.6023931524 0.9118744229 0.3961753954
0.6462280581 0.9122162472 0.3954429146
0.6869051577 0.9124115754 0.3931803628
0.7305121804 0.9130301148 0.3922525538
0.7647597265 0.9121674152 0.3851556289
0.8011396055 0.9129487280 0.3815095023
0.8395215986 0.9147392366 0.3850091327
0.8780989200 0.9154228853 0.3811676780
0.9105559575 0.9160088700 0.3772448364
0.9436803663 0.9166111319 0.3732894402
0.9817856445 0.9170017884 0.3688294461
0.4154966108 0.9425897838 0.4287626516
0.4344760018 0.9426060611 0.4285347687
0.4610731929 0.9426548932 0.4280627256
0.4961020518 0.9426386158 0.4276069597
0.5359978386 0.9427525573 0.4266465960
0.5752588087 0.9432246005 0.4250839704
0.6136733565 0.9436640889 0.4237980597
0.6553596519 0.9436640889 0.4228539733
0.6958902553 0.9443640150 0.4211122968
0.7358023195 0.9448360582 0.4196961673
0.7691546112 0.9464312386 0.4145525244
0.8055670449 0.9459266407 0.4145688018
0.8439490380 0.9461708010 0.4130387308
0.8807195735 0.9475055437 0.4097669833
0.9141858067 0.9480915284 0.4072765486
0.9452755467 0.9481729151 0.4046884498
0.9850085599 0.9486612356 0.3995448070
0.0006520487 0.0003916111 0.0569065730
0.0253610672 0.0000009547 0.0962000978
0.0943933119 0.0000009547 0.1093684746
0.1963383598 0.0000009547 0.1166444504
0.3063569738 0.0000009547 0.1230902813
0.3979496266 0.0000009547 0.1220485308
0.4853590003 0.0000009547 0.1247505711
0.5532681078 0.0000009547 0.1192651039
0.6188658314 0.0000009547 0.1181745214
0.6764713758 0.0000009547 0.1146423362
0.7283961248 0.0000009547 0.1094335840
0.7738424882 0.0000009547 0.1074314698
0.8137545523 0.0261261027 0.1110124870
0.8560431097 0.0505095742 0.0997322829
0.8928624772 0.0795972000 0.0895752160
0.9253520693 0.1020924988 0.0785228949
0.9618621671 0.1176210914 0.0668683117
0.0000009547 0.0277538378 0.2255562045
0.0993904586 0.0201685923 0.2182476740
0.1958012072 0.0000009547 0.1984381381
0.2858637891 0.0000009547 0.1761056128
0.3778145437 0.0000009547 0.1661927062
0.4602430481 0.0000009547 0.1614397197
0.5331981343 0.0024425573 0.1572401632
0.5895177680 0.0183618064 0.1479132412
0.6410193058 0.0269399702 0.1425417155
0.6904698975 0.0445357864 0.1354773452
0.7363069173 0.0769277145 0.1309522417
0.7749819028 0.0709050947 0.1222438591
0.8136894429 0.1082616147 0.1182233534
0.8561570511 0.1215276556 0.1048596484
0.8928950319 0.1425905475 0.0954350623
