3D_LUT_4701_17point.cube
# 3D LUT 4701 17point.cube
# 08/05/2022 10:10:00 AM
# CalMAN 5 (22.2.15.847, 08/05/2022 10:10:00 AM, CubeGenerator, 3)
# LUT_ORDER BGR
LUT_3D_SIZE 5
DOMAIN_MIN 0.0 0.0 0.0
DOMAIN_MAX 1.0 1.0 1.0
0.0000009547 0.0000009547 0.0000009547
0.3404580236 0.0010264278 0.0003265017
0.6295274962 0.0040377377 0.0033378116
0.8095387185 0.0818271971 0.0037773001
0.9543745858 0.1496386404 0.0043144526
0.0440311885 0.3675109806 0.0349972589
0.3798980446 0.3621720096 0.0259633292
0.6383986524 0.3663715661 0.0025727761
0.8125500284 0.3834302297 0.0051608749
0.9590624628 0.4099134794 0.0107440062
0.1674135075 0.6235211538 0.1523406807
0.4127620158 0.6233746576 0.1475876942
0.6463582769 0.6251651662 0.1330682973
0.8180843277 0.6316761065 0.1096126349
0.9664198253 0.6403193798 0.0635802868
0.2753160658 0.7994304837 0.2838779523
0.4644751593 0.7995932572 0.2804922634
0.6661678128 0.8008628905 0.2722884786
0.8285832189 0.8036137628 0.2508186529
0.9734679182 0.8078947061 0.2238470826
0.4136572701 0.9429967176 0.4083834085
0.5352816352 0.9431106590 0.4062510755
0.6957112045 0.9446081753 0.4007167762
0.8437537098 0.9464963480 0.3920572256
0.9849597279 0.9485961262 0.3763821368
0.0015310257 0.0022472291 0.1760242260
0.2299022571 0.0000009547 0.2583550663
0.5888503966 0.0000009547 0.2981369116
0.8032719384 0.0000009547 0.3058198212
0.9602018773 0.0432498757 0.3160094428
0.0735257482 0.3211693630 0.3881018294
0.3852370157 0.3159280560 0.3818350493
0.6402054383 0.3220808946 0.3698223645
0.8143730917 0.3475061165 0.3561982219
0.9632782966 0.3783679736 0.3367305103
0.1831048736 0.6125827740 0.4161965368
0.4170429591 0.6124362779 0.4141130359
0.6477255744 0.6142593412 0.4066580093
0.8198260042 0.6208679456 0.3978031305
0.9675429625 0.6297553791 0.3823559246
0.2676331562 0.7947263293 0.4681212858
0.4642309990 0.7948728254 0.4660377849
0.6667212427 0.7962726776 0.4619847246
0.8288762112 0.7988933311 0.4530484590
0.9738097426 0.8032231064 0.4439494199
0.4206728083 0.9402132906 0.5338980603
0.5390417032 0.9403597867 0.5324982082
0.6976644866 0.9417270842 0.5291776286
0.8450721753 0.9436152569 0.5246362478
0.9856759313 0.9451453279 0.5163185215
0.0045423356 0.0000009547 0.4200054369
0.1538544743 0.0000009547 0.4751856561
0.5293892342 0.0000009547 0.5378697339
0.7701312523 0.0000009547 0.5805163930
0.9471474420 0.0024425573 0.6038092820
0.0899984272 0.1734198499 0.6480185667
0.3944174415 0.1711735755 0.6444375495
0.6430376973 0.1851558198 0.6383986524
0.8160333815 0.2290558349 0.6320016535
0.9645804847 0.2765205898 0.6258813696
0.1908691700 0.5841136875 0.6510787086
0.4263536037 0.5839020819 0.6498741847
0.6520390723 0.5865878448 0.6472209765
0.8210305281 0.5928709022 0.6430214200
0.9689753694 0.6033535161 0.6383498203
0.2576714176 0.7824857615 0.6675188329
0.4678608482 0.7825834256 0.6660701487
0.6675676650 0.7840483872 0.6647516833
0.8293808091 0.7868969236 0.6621147525
0.9757793020 0.7916010779 0.6587453408
0.4237492276 0.9333930806 0.6972738301
0.5421506772 0.9335721315 0.6966064588
0.7002851400 0.9344673858 0.6952391613
0.8460650937 0.9363555584 0.6926836172
0.9862293612 0.9388134384 0.6889398265
0.0223009253 0.0000009547 0.5993655652
0.1273061152 0.0000009547 0.6345734749
0.4421100793 0.0000009547 0.6876376385
0.7342071391 0.0000172320 0.7355418818
0.9139090917 0.0002125602 0.7668432274
0.0543835836 0.0000009547 0.7749656254
0.2113297999 0.0000009547 0.7782862050
0.5692687436 0.0000009547 0.7871899159
0.8025557350 0.0000660641 0.8005373435
0.9543745858 0.0134460464 0.8052414979
0.2264840135 0.5236433294 0.8232279705
0.4434122673 0.5241316499 0.8227070953
0.6579965827 0.5279731047 0.8214537393
0.8235372402 0.5386673241 0.8189958593
0.9697404049 0.5509892787 0.8167170302
0.2878659033 0.7596323610 0.8326362793
0.4795479861 0.7598439666 0.8322130681
0.6730368548 0.7613577602 0.8312527044
0.8327339434 0.7647434491 0.8297877429
0.9775209786 0.7695778223 0.8280948984
0.4399451916 0.9213315637 0.8472207856
0.5505335128 0.9215594466 0.8468464065
0.7047288568 0.9225035329 0.8460488163
0.8495158920 0.9245056471 0.8447791829
0.9867339591 0.9266705347 0.8427445141
0.0320185037 0.0000009547 0.7387647973
0.1218043706 0.0000009547 0.7591603178
0.3504848717 0.0000009547 0.8008628905
0.7146743181 0.0000009547 0.8502158181
0.8883536510 0.0403850620 0.8856678881
0.0431359343 0.0000009547 0.8545781481
0.1580377534 0.0000009547 0.8624563859
0.4844800234 0.0000009547 0.8804265812
0.7656875355 0.0000172320 0.9038171342
0.9232685684 0.0419965197 0.9219338256
0.2692934460 0.3620743455 0.9825506800
0.4648332610 0.3643206199 0.9823390744
0.6665747466 0.3736963739 0.9808578355
0.8282251172 0.3949871488 0.9782209047
0.9712053665 0.4223656528 0.9726377733
0.3643206199 0.7213317546 0.9896476049
0.5105563393 0.7217549657 0.9893871673
0.6849355983 0.7232036499 0.9883454168
0.8382519653 0.7282170740 0.9865386309
0.9808090034 0.7344350220 0.9833157154
0.4694885833 0.9014406410 0.9867665138
0.5689431966 0.9017661880 0.9905591365
0.7154393536 0.9026939970 0.9959469397
0.8556361759 0.9048751620 0.9984699290
0.9814763748 0.9076260343 0.9899243199
